(Scribbled version of C:\Users\SJ\AppData\Local\Temp\InkscapePortableTemp\ink_ext_XXXXXX.svgGCV65Y @ 3500.00)
( unicorn.py --tab="plotter_setup" --pen-up-angle=50 --pen-down-angle=30 --start-delay=150 --stop-delay=150 --xy-feedrate=3500 --z-feedrate=150 --z-height=0 --finished-height=0 --register-pen=true --x-home=0 --y-home=0 --num-copies=1 --continuous=false --pause-on-layer-change=false C:\Users\SJ\AppData\Local\Temp\InkscapePortableTemp\ink_ext_XXXXXX.svgGCV65Y )
G21 (metric ftw)
G90 (absolute mode)
G92 X0.00 Y0.00 Z0.00 (you are here)

M300 S30 (pen down)
G4 P150 (wait 150ms)
M300 S50 (pen up)
G4 P150 (wait 150ms)
M18 (disengage drives)
M01 (Was registration test successful?)
M17 (engage drives if YES, and continue)

(Polyline consisting of 30 segments.)
G1 X22.95 Y37.81 F3500.00
M300 S30.00 (pen down)
G4 P150 (wait 150ms)
G1 X20.59 Y37.72 F3500.00
G1 X20.22 Y37.68 F3500.00
G1 X18.84 Y37.54 F3500.00
G1 X18.34 Y37.45 F3500.00
G1 X17.96 Y37.36 F3500.00
G1 X17.86 Y37.33 F3500.00
G1 X17.76 Y37.29 F3500.00
G1 X17.57 Y37.22 F3500.00
G1 X16.84 Y37.05 F3500.00
G1 X16.65 Y36.99 F3500.00
G1 X16.49 Y36.93 F3500.00
G1 X16.30 Y36.88 F3500.00
G1 X16.11 Y36.84 F3500.00
G1 X15.94 Y36.77 F3500.00
G1 X15.75 Y36.69 F3500.00
G1 X15.63 Y36.63 F3500.00
G1 X15.39 Y36.56 F3500.00
G1 X15.19 Y36.51 F3500.00
G1 X15.11 Y36.47 F3500.00
G1 X14.99 Y36.41 F3500.00
G1 X14.85 Y36.35 F3500.00
G1 X14.68 Y36.26 F3500.00
G1 X14.60 Y36.22 F3500.00
G1 X14.46 Y36.17 F3500.00
G1 X14.29 Y36.09 F3500.00
G1 X14.15 Y36.04 F3500.00
G1 X14.06 Y35.99 F3500.00
G1 X13.98 Y35.94 F3500.00
G1 X13.72 Y35.83 F3500.00
G1 X13.66 Y35.82 F3500.00
G1 X13.62 Y35.80 F3500.00
G1 X13.58 Y35.79 F3500.00
G1 X13.52 Y35.77 F3500.00
G1 X13.43 Y35.73 F3500.00
G1 X13.32 Y35.72 F3500.00
G1 X13.28 Y35.70 F3500.00
G1 X13.21 Y35.41 F3500.00
G1 X13.33 Y34.97 F3500.00
G1 X13.34 Y34.90 F3500.00
G1 X13.35 Y34.64 F3500.00
G1 X13.42 Y34.21 F3500.00
G1 X13.49 Y33.93 F3500.00
G1 X13.54 Y33.68 F3500.00
G1 X13.71 Y32.85 F3500.00
G1 X13.77 Y32.55 F3500.00
G1 X13.80 Y32.48 F3500.00
G1 X13.83 Y32.51 F3500.00
G1 X13.88 Y32.56 F3500.00
G1 X13.90 Y32.49 F3500.00
G1 X13.92 Y32.42 F3500.00
G1 X13.99 Y32.35 F3500.00
G1 X14.10 Y32.28 F3500.00
G1 X14.18 Y32.25 F3500.00
G1 X14.28 Y32.13 F3500.00
G1 X14.30 Y32.09 F3500.00
G1 X14.48 Y32.04 F3500.00
G1 X14.49 Y32.00 F3500.00
G1 X14.58 Y31.91 F3500.00
G1 X14.68 Y31.82 F3500.00
G1 X14.80 Y31.79 F3500.00
G1 X14.80 Y31.77 F3500.00
G1 X14.85 Y31.73 F3500.00
G1 X14.87 Y31.69 F3500.00
G1 X14.93 Y31.64 F3500.00
G1 X15.00 Y31.58 F3500.00
G1 X15.06 Y31.56 F3500.00
G1 X15.13 Y31.54 F3500.00
G1 X15.19 Y31.49 F3500.00
G1 X15.26 Y31.43 F3500.00
G1 X15.40 Y31.34 F3500.00
G1 X15.45 Y31.31 F3500.00
G1 X15.52 Y31.24 F3500.00
G1 X15.58 Y31.20 F3500.00
G1 X15.72 Y31.09 F3500.00
G1 X15.78 Y31.04 F3500.00
G1 X15.84 Y31.01 F3500.00
G1 X15.89 Y30.95 F3500.00
G1 X15.97 Y30.88 F3500.00
G1 X16.06 Y30.85 F3500.00
G1 X16.19 Y30.73 F3500.00
G1 X16.21 Y30.70 F3500.00
G1 X16.29 Y30.64 F3500.00
G1 X16.37 Y30.58 F3500.00
G1 X16.52 Y30.54 F3500.00
G1 X16.55 Y30.51 F3500.00
G1 X16.66 Y30.37 F3500.00
G1 X16.70 Y30.34 F3500.00
G1 X16.76 Y30.28 F3500.00
G1 X16.82 Y30.23 F3500.00
G1 X16.92 Y30.18 F3500.00
G1 X17.02 Y30.13 F3500.00
G1 X17.13 Y30.02 F3500.00
G1 X17.15 Y29.98 F3500.00
G1 X17.24 Y29.93 F3500.00
G1 X17.33 Y29.87 F3500.00
G1 X17.39 Y29.82 F3500.00
G1 X17.46 Y29.75 F3500.00
G1 X17.54 Y29.68 F3500.00
G1 X17.62 Y29.62 F3500.00
G1 X17.67 Y29.60 F3500.00
G1 X17.72 Y29.60 F3500.00
G1 X17.90 Y29.45 F3500.00
G1 X17.94 Y29.39 F3500.00
G1 X18.04 Y29.38 F3500.00
G1 X18.05 Y29.37 F3500.00
G1 X18.22 Y29.20 F3500.00
G1 X18.26 Y29.15 F3500.00
G1 X18.30 Y29.14 F3500.00
G1 X18.36 Y29.13 F3500.00
G1 X18.43 Y29.07 F3500.00
G1 X18.49 Y29.00 F3500.00
G1 X18.57 Y28.93 F3500.00
G1 X18.65 Y28.87 F3500.00
G1 X18.69 Y28.85 F3500.00
G1 X18.74 Y28.84 F3500.00
G1 X18.78 Y28.80 F3500.00
G1 X18.81 Y28.78 F3500.00
G1 X18.89 Y28.71 F3500.00
G1 X18.97 Y28.63 F3500.00
G1 X19.02 Y28.60 F3500.00
G1 X19.06 Y28.59 F3500.00
G1 X19.10 Y28.55 F3500.00
G1 X19.13 Y28.52 F3500.00
G1 X19.21 Y28.47 F3500.00
G1 X19.28 Y28.40 F3500.00
G1 X19.33 Y28.39 F3500.00
G1 X19.38 Y28.35 F3500.00
G1 X19.40 Y28.31 F3500.00
G1 X19.41 Y28.26 F3500.00
G1 X19.48 Y28.25 F3500.00
G1 X19.54 Y28.23 F3500.00
G1 X19.57 Y28.20 F3500.00
G1 X19.61 Y28.16 F3500.00
G1 X19.65 Y28.14 F3500.00
G1 X19.71 Y28.11 F3500.00
G1 X19.79 Y28.08 F3500.00
G1 X19.86 Y28.02 F3500.00
G1 X19.94 Y27.93 F3500.00
G1 X20.03 Y27.87 F3500.00
G1 X20.11 Y27.82 F3500.00
G1 X20.18 Y27.80 F3500.00
G1 X20.22 Y27.77 F3500.00
G1 X20.25 Y27.74 F3500.00
G1 X20.31 Y27.68 F3500.00
G1 X20.38 Y27.60 F3500.00
G1 X20.44 Y27.57 F3500.00
G1 X20.50 Y27.55 F3500.00
G1 X20.53 Y27.52 F3500.00
G1 X20.57 Y27.49 F3500.00
G1 X20.63 Y27.43 F3500.00
G1 X20.69 Y27.37 F3500.00
G1 X20.75 Y27.36 F3500.00
G1 X20.82 Y27.34 F3500.00
G1 X20.86 Y27.31 F3500.00
G1 X20.89 Y27.25 F3500.00
G1 X20.93 Y27.21 F3500.00
G1 X20.98 Y27.20 F3500.00
G1 X21.00 Y27.16 F3500.00
G1 X21.01 Y27.13 F3500.00
G1 X21.07 Y27.10 F3500.00
G1 X21.14 Y27.10 F3500.00
G1 X21.23 Y26.98 F3500.00
G1 X21.41 Y26.89 F3500.00
G1 X21.47 Y26.86 F3500.00
G1 X21.53 Y26.79 F3500.00
G1 X21.59 Y26.74 F3500.00
G1 X21.77 Y26.68 F3500.00
G1 X21.79 Y26.65 F3500.00
G1 X22.09 Y26.43 F3500.00
G1 X22.10 Y26.40 F3500.00
G1 X22.20 Y26.31 F3500.00
G1 X22.32 Y26.24 F3500.00
G1 X22.75 Y26.25 F3500.00
G1 X22.78 Y26.34 F3500.00
G1 X22.84 Y26.37 F3500.00
G1 X22.90 Y26.43 F3500.00
G1 X22.92 Y26.46 F3500.00
G1 X23.09 Y26.53 F3500.00
G1 X23.11 Y26.56 F3500.00
G1 X23.21 Y26.68 F3500.00
G1 X23.27 Y26.70 F3500.00
G1 X23.32 Y26.74 F3500.00
G1 X23.37 Y26.75 F3500.00
G1 X23.42 Y26.76 F3500.00
G1 X23.48 Y26.83 F3500.00
G1 X23.54 Y26.88 F3500.00
G1 X23.59 Y26.91 F3500.00
G1 X23.65 Y26.97 F3500.00
G1 X23.69 Y26.99 F3500.00
G1 X23.74 Y27.01 F3500.00
G1 X23.80 Y27.07 F3500.00
G1 X23.86 Y27.13 F3500.00
G1 X23.91 Y27.16 F3500.00
G1 X23.96 Y27.20 F3500.00
G1 X24.01 Y27.21 F3500.00
G1 X24.05 Y27.25 F3500.00
G1 X24.11 Y27.32 F3500.00
G1 X24.19 Y27.38 F3500.00
G1 X24.23 Y27.42 F3500.00
G1 X24.28 Y27.44 F3500.00
G1 X24.34 Y27.46 F3500.00
G1 X24.38 Y27.48 F3500.00
G1 X24.43 Y27.54 F3500.00
G1 X24.50 Y27.61 F3500.00
G1 X24.58 Y27.68 F3500.00
G1 X24.66 Y27.73 F3500.00
G1 X24.70 Y27.77 F3500.00
G1 X24.73 Y27.80 F3500.00
G1 X24.78 Y27.81 F3500.00
G1 X24.83 Y27.83 F3500.00
G1 X24.90 Y27.89 F3500.00
G1 X24.98 Y27.96 F3500.00
G1 X25.01 Y28.03 F3500.00
G1 X25.05 Y28.05 F3500.00
G1 X25.10 Y28.07 F3500.00
G1 X25.15 Y28.09 F3500.00
G1 X25.17 Y28.13 F3500.00
G1 X25.37 Y28.24 F3500.00
G1 X25.42 Y28.27 F3500.00
G1 X25.56 Y28.37 F3500.00
G1 X25.62 Y28.43 F3500.00
G1 X25.68 Y28.48 F3500.00
G1 X25.72 Y28.52 F3500.00
G1 X25.75 Y28.55 F3500.00
G1 X25.82 Y28.56 F3500.00
G1 X25.88 Y28.59 F3500.00
G1 X25.90 Y28.63 F3500.00
G1 X26.00 Y28.75 F3500.00
G1 X26.04 Y28.77 F3500.00
G1 X26.06 Y28.81 F3500.00
G1 X26.08 Y28.83 F3500.00
G1 X26.27 Y28.87 F3500.00
G1 X26.32 Y28.92 F3500.00
G1 X26.38 Y29.01 F3500.00
G1 X26.46 Y29.07 F3500.00
G1 X26.54 Y29.14 F3500.00
G1 X26.57 Y29.18 F3500.00
G1 X26.71 Y29.24 F3500.00
G1 X26.78 Y29.29 F3500.00
G1 X26.87 Y29.34 F3500.00
G1 X27.00 Y29.45 F3500.00
G1 X27.12 Y29.52 F3500.00
G1 X27.16 Y29.55 F3500.00
G1 X27.19 Y29.59 F3500.00
G1 X27.25 Y29.60 F3500.00
G1 X27.29 Y29.62 F3500.00
G1 X27.37 Y29.68 F3500.00
G1 X27.45 Y29.75 F3500.00
G1 X27.48 Y29.81 F3500.00
G1 X27.51 Y29.83 F3500.00
G1 X27.56 Y29.85 F3500.00
G1 X27.61 Y29.87 F3500.00
G1 X27.69 Y29.93 F3500.00
G1 X27.77 Y29.98 F3500.00
G1 X27.80 Y30.02 F3500.00
G1 X27.84 Y30.07 F3500.00
G1 X27.89 Y30.10 F3500.00
G1 X27.93 Y30.12 F3500.00
G1 X28.01 Y30.18 F3500.00
G1 X28.09 Y30.23 F3500.00
G1 X28.14 Y30.28 F3500.00
G1 X28.21 Y30.38 F3500.00
G1 X28.22 Y30.42 F3500.00
G1 X28.29 Y30.37 F3500.00
G1 X28.40 Y30.49 F3500.00
G1 X28.47 Y30.53 F3500.00
G1 X28.52 Y30.61 F3500.00
G1 X28.55 Y30.64 F3500.00
G1 X28.73 Y30.70 F3500.00
G1 X28.74 Y30.73 F3500.00
G1 X28.85 Y30.86 F3500.00
G1 X28.93 Y30.89 F3500.00
G1 X29.00 Y30.96 F3500.00
G1 X29.03 Y31.00 F3500.00
G1 X29.17 Y31.09 F3500.00
G1 X29.18 Y31.13 F3500.00
G1 X29.26 Y31.09 F3500.00
G1 X29.32 Y31.20 F3500.00
G1 X29.36 Y31.23 F3500.00
G1 X29.56 Y31.34 F3500.00
G1 X29.60 Y31.38 F3500.00
G1 X29.71 Y31.43 F3500.00
G1 X29.79 Y31.48 F3500.00
G1 X29.81 Y31.51 F3500.00
G1 X29.90 Y31.57 F3500.00
G1 X29.97 Y31.61 F3500.00
G1 X30.06 Y31.68 F3500.00
G1 X30.16 Y31.79 F3500.00
G1 X30.23 Y31.84 F3500.00
G1 X30.37 Y31.91 F3500.00
G1 X30.48 Y31.98 F3500.00
G1 X30.49 Y32.04 F3500.00
G1 X30.50 Y32.06 F3500.00
G1 X30.68 Y32.14 F3500.00
G1 X30.78 Y32.21 F3500.00
G1 X30.90 Y32.27 F3500.00
G1 X30.91 Y32.30 F3500.00
G1 X30.93 Y32.34 F3500.00
G1 X30.97 Y32.37 F3500.00
G1 X30.98 Y32.42 F3500.00
G1 X31.03 Y32.45 F3500.00
G1 X31.11 Y32.52 F3500.00
G1 X31.15 Y32.60 F3500.00
G1 X31.21 Y32.66 F3500.00
G1 X31.25 Y32.83 F3500.00
G1 X31.36 Y33.41 F3500.00
G1 X31.43 Y33.76 F3500.00
G1 X31.50 Y33.98 F3500.00
G1 X31.53 Y34.20 F3500.00
G1 X31.60 Y34.63 F3500.00
G1 X31.62 Y35.51 F3500.00
G1 X31.51 Y35.58 F3500.00
G1 X31.49 Y35.60 F3500.00
G1 X31.44 Y35.71 F3500.00
G1 X31.36 Y35.76 F3500.00
G1 X31.24 Y35.82 F3500.00
G1 X31.11 Y35.87 F3500.00
G1 X31.02 Y35.92 F3500.00
G1 X30.91 Y35.97 F3500.00
G1 X30.33 Y36.23 F3500.00
G1 X30.12 Y36.33 F3500.00
G1 X29.84 Y36.44 F3500.00
G1 X29.77 Y36.47 F3500.00
G1 X29.66 Y36.52 F3500.00
G1 X29.22 Y36.69 F3500.00
G1 X29.02 Y36.77 F3500.00
G1 X28.65 Y36.90 F3500.00
G1 X28.31 Y36.99 F3500.00
G1 X28.13 Y37.06 F3500.00
G1 X27.89 Y37.14 F3500.00
G1 X27.41 Y37.24 F3500.00
G1 X27.06 Y37.32 F3500.00
G1 X26.95 Y37.36 F3500.00
G1 X26.57 Y37.44 F3500.00
G1 X26.04 Y37.54 F3500.00
G1 X25.43 Y37.62 F3500.00
G1 X24.68 Y37.72 F3500.00
G1 X22.95 Y37.81 F3500.00
G1 X22.95 Y37.81 F3500.00
M300 S50.00 (pen up)
G4 P150 (wait 150ms)

(Polyline consisting of 30 segments.)
G1 X21.48 Y37.19 F3500.00
M300 S30.00 (pen down)
G4 P150 (wait 150ms)
G1 X23.62 Y37.19 F3500.00
G1 X25.13 Y37.04 F3500.00
G1 X25.53 Y36.98 F3500.00
G1 X26.09 Y36.90 F3500.00
G1 X26.71 Y36.78 F3500.00
G1 X27.20 Y36.66 F3500.00
G1 X27.32 Y36.62 F3500.00
G1 X27.83 Y36.49 F3500.00
G1 X28.35 Y36.37 F3500.00
G1 X28.42 Y36.33 F3500.00
G1 X28.51 Y36.27 F3500.00
G1 X29.19 Y36.08 F3500.00
G1 X29.33 Y36.03 F3500.00
G1 X29.44 Y35.98 F3500.00
G1 X29.60 Y35.89 F3500.00
G1 X30.15 Y35.65 F3500.00
G1 X30.44 Y35.51 F3500.00
G1 X30.81 Y35.36 F3500.00
G1 X30.91 Y35.29 F3500.00
G1 X31.00 Y35.23 F3500.00
G1 X30.90 Y33.85 F3500.00
G1 X30.85 Y33.73 F3500.00
G1 X30.79 Y33.48 F3500.00
G1 X30.66 Y32.89 F3500.00
G1 X30.63 Y32.86 F3500.00
G1 X30.60 Y32.80 F3500.00
G1 X30.36 Y32.61 F3500.00
G1 X30.29 Y32.57 F3500.00
G1 X30.13 Y32.46 F3500.00
G1 X29.96 Y32.36 F3500.00
G1 X29.86 Y32.30 F3500.00
G1 X29.79 Y32.25 F3500.00
G1 X29.74 Y32.15 F3500.00
G1 X29.73 Y32.11 F3500.00
G1 X29.56 Y32.05 F3500.00
G1 X29.49 Y32.00 F3500.00
G1 X29.42 Y31.95 F3500.00
G1 X29.32 Y31.89 F3500.00
G1 X29.24 Y31.82 F3500.00
G1 X29.18 Y31.76 F3500.00
G1 X29.12 Y31.67 F3500.00
G1 X29.10 Y31.64 F3500.00
G1 X28.86 Y31.55 F3500.00
G1 X28.82 Y31.52 F3500.00
G1 X28.79 Y31.47 F3500.00
G1 X28.78 Y31.46 F3500.00
G1 X28.69 Y31.43 F3500.00
G1 X28.61 Y31.36 F3500.00
G1 X28.53 Y31.31 F3500.00
G1 X28.47 Y31.25 F3500.00
G1 X28.41 Y31.15 F3500.00
G1 X28.40 Y31.11 F3500.00
G1 X28.34 Y31.16 F3500.00
G1 X28.22 Y31.04 F3500.00
G1 X28.15 Y31.01 F3500.00
G1 X28.08 Y30.95 F3500.00
G1 X28.01 Y30.94 F3500.00
G1 X27.95 Y30.92 F3500.00
G1 X27.90 Y30.86 F3500.00
G1 X27.84 Y30.79 F3500.00
G1 X27.80 Y30.73 F3500.00
G1 X27.77 Y30.70 F3500.00
G1 X27.70 Y30.69 F3500.00
G1 X27.63 Y30.67 F3500.00
G1 X27.57 Y30.61 F3500.00
G1 X27.51 Y30.56 F3500.00
G1 X27.47 Y30.52 F3500.00
G1 X27.44 Y30.49 F3500.00
G1 X27.38 Y30.48 F3500.00
G1 X27.33 Y30.43 F3500.00
G1 X27.31 Y30.37 F3500.00
G1 X27.29 Y30.34 F3500.00
G1 X27.27 Y30.32 F3500.00
G1 X27.12 Y30.26 F3500.00
G1 X27.05 Y30.21 F3500.00
G1 X26.97 Y30.15 F3500.00
G1 X26.95 Y30.11 F3500.00
G1 X26.79 Y30.04 F3500.00
G1 X26.71 Y29.97 F3500.00
G1 X26.65 Y29.89 F3500.00
G1 X26.64 Y29.85 F3500.00
G1 X26.49 Y29.80 F3500.00
G1 X26.45 Y29.77 F3500.00
G1 X26.34 Y29.63 F3500.00
G1 X26.31 Y29.60 F3500.00
G1 X26.17 Y29.56 F3500.00
G1 X26.08 Y29.51 F3500.00
G1 X26.00 Y29.45 F3500.00
G1 X25.98 Y29.41 F3500.00
G1 X25.94 Y29.37 F3500.00
G1 X25.89 Y29.33 F3500.00
G1 X25.84 Y29.31 F3500.00
G1 X25.76 Y29.26 F3500.00
G1 X25.68 Y29.20 F3500.00
G1 X25.66 Y29.16 F3500.00
G1 X25.62 Y29.13 F3500.00
G1 X25.57 Y29.12 F3500.00
G1 X25.53 Y29.09 F3500.00
G1 X25.49 Y29.06 F3500.00
G1 X25.38 Y28.93 F3500.00
G1 X25.34 Y28.92 F3500.00
G1 X25.30 Y28.88 F3500.00
G1 X25.23 Y28.86 F3500.00
G1 X25.18 Y28.85 F3500.00
G1 X25.13 Y28.79 F3500.00
G1 X25.05 Y28.73 F3500.00
G1 X25.01 Y28.70 F3500.00
G1 X24.98 Y28.65 F3500.00
G1 X24.91 Y28.62 F3500.00
G1 X24.86 Y28.60 F3500.00
G1 X24.81 Y28.54 F3500.00
G1 X24.73 Y28.48 F3500.00
G1 X24.70 Y28.45 F3500.00
G1 X24.66 Y28.42 F3500.00
G1 X24.59 Y28.40 F3500.00
G1 X24.51 Y28.32 F3500.00
G1 X24.49 Y28.25 F3500.00
G1 X24.34 Y28.20 F3500.00
G1 X24.26 Y28.15 F3500.00
G1 X24.19 Y28.07 F3500.00
G1 X24.18 Y28.03 F3500.00
G1 X24.02 Y27.96 F3500.00
G1 X23.95 Y27.89 F3500.00
G1 X23.87 Y27.81 F3500.00
G1 X23.85 Y27.79 F3500.00
G1 X23.64 Y27.70 F3500.00
G1 X23.60 Y27.66 F3500.00
G1 X23.49 Y27.52 F3500.00
G1 X23.47 Y27.51 F3500.00
G1 X23.32 Y27.45 F3500.00
G1 X23.24 Y27.40 F3500.00
G1 X23.16 Y27.30 F3500.00
G1 X23.15 Y27.27 F3500.00
G1 X23.11 Y27.31 F3500.00
G1 X23.00 Y27.20 F3500.00
G1 X22.92 Y27.15 F3500.00
G1 X22.84 Y27.07 F3500.00
G1 X22.83 Y27.04 F3500.00
G1 X22.60 Y26.93 F3500.00
G1 X22.55 Y26.87 F3500.00
G1 X22.47 Y26.85 F3500.00
G1 X22.37 Y26.87 F3500.00
G1 X22.30 Y26.93 F3500.00
G1 X22.24 Y27.01 F3500.00
G1 X22.17 Y27.06 F3500.00
G1 X22.09 Y27.12 F3500.00
G1 X22.02 Y27.17 F3500.00
G1 X21.98 Y27.21 F3500.00
G1 X21.86 Y27.21 F3500.00
G1 X21.84 Y27.27 F3500.00
G1 X21.76 Y27.36 F3500.00
G1 X21.71 Y27.42 F3500.00
G1 X21.65 Y27.46 F3500.00
G1 X21.52 Y27.44 F3500.00
G1 X21.50 Y27.48 F3500.00
G1 X21.48 Y27.58 F3500.00
G1 X21.42 Y27.63 F3500.00
G1 X21.35 Y27.66 F3500.00
G1 X21.31 Y27.71 F3500.00
G1 X21.26 Y27.73 F3500.00
G1 X21.21 Y27.74 F3500.00
G1 X21.18 Y27.77 F3500.00
G1 X21.14 Y27.80 F3500.00
G1 X20.90 Y27.89 F3500.00
G1 X20.89 Y27.95 F3500.00
G1 X20.81 Y28.04 F3500.00
G1 X20.75 Y28.10 F3500.00
G1 X20.69 Y28.14 F3500.00
G1 X20.58 Y28.14 F3500.00
G1 X20.56 Y28.16 F3500.00
G1 X20.53 Y28.20 F3500.00
G1 X20.51 Y28.24 F3500.00
G1 X20.43 Y28.29 F3500.00
G1 X20.34 Y28.37 F3500.00
G1 X20.30 Y28.40 F3500.00
G1 X20.25 Y28.41 F3500.00
G1 X20.22 Y28.45 F3500.00
G1 X20.18 Y28.48 F3500.00
G1 X20.11 Y28.55 F3500.00
G1 X20.03 Y28.60 F3500.00
G1 X19.99 Y28.62 F3500.00
G1 X19.93 Y28.65 F3500.00
G1 X19.90 Y28.70 F3500.00
G1 X19.86 Y28.73 F3500.00
G1 X19.78 Y28.79 F3500.00
G1 X19.71 Y28.85 F3500.00
G1 X19.66 Y28.87 F3500.00
G1 X19.61 Y28.88 F3500.00
G1 X19.57 Y28.92 F3500.00
G1 X19.55 Y28.95 F3500.00
G1 X19.51 Y28.99 F3500.00
G1 X19.47 Y29.02 F3500.00
G1 X19.41 Y29.06 F3500.00
G1 X19.39 Y29.09 F3500.00
G1 X19.34 Y29.12 F3500.00
G1 X19.29 Y29.13 F3500.00
G1 X19.27 Y29.16 F3500.00
G1 X19.26 Y29.21 F3500.00
G1 X19.19 Y29.22 F3500.00
G1 X19.13 Y29.24 F3500.00
G1 X19.10 Y29.27 F3500.00
G1 X19.06 Y29.30 F3500.00
G1 X18.96 Y29.41 F3500.00
G1 X18.94 Y29.45 F3500.00
G1 X18.88 Y29.47 F3500.00
G1 X18.81 Y29.49 F3500.00
G1 X18.78 Y29.52 F3500.00
G1 X18.74 Y29.55 F3500.00
G1 X18.68 Y29.61 F3500.00
G1 X18.62 Y29.67 F3500.00
G1 X18.56 Y29.69 F3500.00
G1 X18.50 Y29.72 F3500.00
G1 X18.46 Y29.77 F3500.00
G1 X18.43 Y29.81 F3500.00
G1 X18.36 Y29.86 F3500.00
G1 X18.29 Y29.91 F3500.00
G1 X18.12 Y29.97 F3500.00
G1 X18.10 Y30.01 F3500.00
G1 X18.04 Y30.12 F3500.00
G1 X17.91 Y30.16 F3500.00
G1 X17.90 Y30.20 F3500.00
G1 X17.85 Y30.22 F3500.00
G1 X17.79 Y30.24 F3500.00
G1 X17.76 Y30.27 F3500.00
G1 X17.72 Y30.30 F3500.00
G1 X17.64 Y30.36 F3500.00
G1 X17.59 Y30.46 F3500.00
G1 X17.54 Y30.47 F3500.00
G1 X17.47 Y30.49 F3500.00
G1 X17.45 Y30.52 F3500.00
G1 X17.44 Y30.56 F3500.00
G1 X17.39 Y30.58 F3500.00
G1 X17.34 Y30.59 F3500.00
G1 X17.28 Y30.63 F3500.00
G1 X17.25 Y30.65 F3500.00
G1 X17.19 Y30.72 F3500.00
G1 X17.11 Y30.79 F3500.00
G1 X17.07 Y30.83 F3500.00
G1 X17.02 Y30.84 F3500.00
G1 X16.97 Y30.87 F3500.00
G1 X16.92 Y30.91 F3500.00
G1 X16.86 Y30.96 F3500.00
G1 X16.79 Y31.02 F3500.00
G1 X16.75 Y31.04 F3500.00
G1 X16.70 Y31.06 F3500.00
G1 X16.66 Y31.09 F3500.00
G1 X16.62 Y31.12 F3500.00
G1 X16.57 Y31.16 F3500.00
G1 X16.54 Y31.19 F3500.00
G1 X16.48 Y31.25 F3500.00
G1 X16.42 Y31.31 F3500.00
G1 X16.35 Y31.33 F3500.00
G1 X16.28 Y31.34 F3500.00
G1 X16.25 Y31.38 F3500.00
G1 X16.22 Y31.43 F3500.00
G1 X16.16 Y31.50 F3500.00
G1 X16.10 Y31.56 F3500.00
G1 X16.03 Y31.58 F3500.00
G1 X15.97 Y31.59 F3500.00
G1 X15.93 Y31.62 F3500.00
G1 X15.90 Y31.66 F3500.00
G1 X15.83 Y31.71 F3500.00
G1 X15.77 Y31.79 F3500.00
G1 X15.65 Y31.81 F3500.00
G1 X15.65 Y31.83 F3500.00
G1 X15.58 Y31.90 F3500.00
G1 X15.52 Y31.95 F3500.00
G1 X15.34 Y31.99 F3500.00
G1 X15.31 Y32.04 F3500.00
G1 X15.24 Y32.10 F3500.00
G1 X15.19 Y32.16 F3500.00
G1 X15.13 Y32.25 F3500.00
G1 X15.01 Y32.25 F3500.00
G1 X14.99 Y32.28 F3500.00
G1 X14.93 Y32.36 F3500.00
G1 X14.87 Y32.40 F3500.00
G1 X14.70 Y32.46 F3500.00
G1 X14.67 Y32.52 F3500.00
G1 X14.61 Y32.60 F3500.00
G1 X14.55 Y32.64 F3500.00
G1 X14.48 Y32.73 F3500.00
G1 X14.17 Y33.44 F3500.00
G1 X14.12 Y33.62 F3500.00
G1 X14.04 Y33.94 F3500.00
G1 X13.96 Y34.38 F3500.00
G1 X13.88 Y34.84 F3500.00
G1 X13.80 Y35.15 F3500.00
G1 X13.77 Y35.20 F3500.00
G1 X13.81 Y35.21 F3500.00
G1 X13.87 Y35.22 F3500.00
G1 X13.93 Y35.24 F3500.00
G1 X14.02 Y35.30 F3500.00
G1 X14.06 Y35.35 F3500.00
G1 X14.09 Y35.36 F3500.00
G1 X14.21 Y35.42 F3500.00
G1 X14.42 Y35.50 F3500.00
G1 X14.57 Y35.55 F3500.00
G1 X14.63 Y35.58 F3500.00
G1 X14.70 Y35.62 F3500.00
G1 X14.77 Y35.65 F3500.00
G1 X15.33 Y35.89 F3500.00
G1 X15.44 Y35.95 F3500.00
G1 X15.52 Y36.02 F3500.00
G1 X15.85 Y36.11 F3500.00
G1 X16.33 Y36.24 F3500.00
G1 X16.58 Y36.32 F3500.00
G1 X17.19 Y36.48 F3500.00
G1 X17.41 Y36.54 F3500.00
G1 X17.64 Y36.61 F3500.00
G1 X17.86 Y36.68 F3500.00
G1 X18.02 Y36.74 F3500.00
G1 X18.31 Y36.79 F3500.00
G1 X19.39 Y36.99 F3500.00
G1 X19.59 Y37.04 F3500.00
G1 X20.37 Y37.11 F3500.00
G1 X21.48 Y37.19 F3500.00
G1 X21.48 Y37.19 F3500.00
M300 S50.00 (pen up)
G4 P150 (wait 150ms)

(Polyline consisting of 30 segments.)
G1 X7.40 Y36.18 F3500.00
M300 S30.00 (pen down)
G4 P150 (wait 150ms)
G1 X7.43 Y36.11 F3500.00
G1 X7.47 Y36.04 F3500.00
G1 X7.41 Y36.09 F3500.00
G1 X7.37 Y36.02 F3500.00
G1 X7.46 Y35.75 F3500.00
G1 X7.45 Y35.72 F3500.00
G1 X7.42 Y35.50 F3500.00
G1 X7.47 Y35.27 F3500.00
G1 X7.50 Y35.17 F3500.00
G1 X7.53 Y35.00 F3500.00
G1 X7.60 Y34.71 F3500.00
G1 X7.68 Y34.24 F3500.00
G1 X7.75 Y33.86 F3500.00
G1 X7.79 Y33.73 F3500.00
G1 X7.83 Y33.56 F3500.00
G1 X7.95 Y32.83 F3500.00
G1 X8.06 Y32.12 F3500.00
G1 X8.11 Y31.94 F3500.00
G1 X8.15 Y31.81 F3500.00
G1 X8.23 Y31.34 F3500.00
G1 X8.34 Y30.75 F3500.00
G1 X8.43 Y30.27 F3500.00
G1 X8.49 Y30.04 F3500.00
G1 X8.56 Y29.72 F3500.00
G1 X8.64 Y29.34 F3500.00
G1 X8.71 Y29.06 F3500.00
G1 X8.84 Y28.34 F3500.00
G1 X9.03 Y27.38 F3500.00
G1 X9.11 Y27.00 F3500.00
G1 X9.28 Y26.03 F3500.00
G1 X9.34 Y25.95 F3500.00
G1 X9.39 Y25.86 F3500.00
G1 X9.42 Y25.79 F3500.00
G1 X9.45 Y25.76 F3500.00
G1 X9.54 Y25.65 F3500.00
G1 X9.62 Y25.57 F3500.00
G1 X9.68 Y25.52 F3500.00
G1 X9.72 Y25.49 F3500.00
G1 X9.87 Y25.44 F3500.00
G1 X9.89 Y25.41 F3500.00
G1 X9.92 Y25.34 F3500.00
G1 X9.95 Y25.32 F3500.00
G1 X10.03 Y25.26 F3500.00
G1 X10.11 Y25.18 F3500.00
G1 X10.15 Y25.14 F3500.00
G1 X10.20 Y25.13 F3500.00
G1 X10.22 Y25.10 F3500.00
G1 X10.23 Y25.05 F3500.00
G1 X10.29 Y25.04 F3500.00
G1 X10.37 Y25.00 F3500.00
G1 X10.43 Y24.93 F3500.00
G1 X10.48 Y24.86 F3500.00
G1 X10.57 Y24.79 F3500.00
G1 X10.63 Y24.74 F3500.00
G1 X10.67 Y24.72 F3500.00
G1 X10.74 Y24.70 F3500.00
G1 X10.78 Y24.67 F3500.00
G1 X10.81 Y24.64 F3500.00
G1 X10.89 Y24.57 F3500.00
G1 X10.96 Y24.53 F3500.00
G1 X11.02 Y24.44 F3500.00
G1 X11.09 Y24.37 F3500.00
G1 X11.14 Y24.36 F3500.00
G1 X11.19 Y24.35 F3500.00
G1 X11.25 Y24.31 F3500.00
G1 X11.27 Y24.28 F3500.00
G1 X11.34 Y24.22 F3500.00
G1 X11.41 Y24.16 F3500.00
G1 X11.56 Y24.07 F3500.00
G1 X11.61 Y24.03 F3500.00
G1 X11.63 Y23.99 F3500.00
G1 X11.64 Y23.95 F3500.00
G1 X11.69 Y23.93 F3500.00
G1 X11.73 Y23.92 F3500.00
G1 X11.77 Y23.88 F3500.00
G1 X11.79 Y23.83 F3500.00
G1 X11.87 Y23.76 F3500.00
G1 X11.96 Y23.70 F3500.00
G1 X12.00 Y23.67 F3500.00
G1 X12.02 Y23.63 F3500.00
G1 X12.07 Y23.61 F3500.00
G1 X12.12 Y23.60 F3500.00
G1 X12.17 Y23.56 F3500.00
G1 X12.20 Y23.53 F3500.00
G1 X12.21 Y23.49 F3500.00
G1 X12.26 Y23.46 F3500.00
G1 X12.31 Y23.42 F3500.00
G1 X12.34 Y23.38 F3500.00
G1 X12.38 Y23.36 F3500.00
G1 X12.44 Y23.34 F3500.00
G1 X12.46 Y23.32 F3500.00
G1 X12.47 Y23.27 F3500.00
G1 X12.53 Y23.25 F3500.00
G1 X12.61 Y23.22 F3500.00
G1 X12.67 Y23.15 F3500.00
G1 X12.73 Y23.08 F3500.00
G1 X12.81 Y23.01 F3500.00
G1 X12.89 Y22.95 F3500.00
G1 X12.93 Y22.93 F3500.00
G1 X12.98 Y22.92 F3500.00
G1 X13.02 Y22.88 F3500.00
G1 X13.05 Y22.85 F3500.00
G1 X13.13 Y22.80 F3500.00
G1 X13.21 Y22.72 F3500.00
G1 X13.28 Y22.65 F3500.00
G1 X13.34 Y22.60 F3500.00
G1 X13.41 Y22.55 F3500.00
G1 X13.61 Y22.38 F3500.00
G1 X13.78 Y22.24 F3500.00
G1 X13.90 Y22.17 F3500.00
G1 X14.01 Y22.07 F3500.00
G1 X15.19 Y21.85 F3500.00
G1 X15.59 Y21.78 F3500.00
G1 X15.79 Y21.75 F3500.00
G1 X15.91 Y21.71 F3500.00
G1 X16.03 Y21.68 F3500.00
G1 X16.27 Y21.64 F3500.00
G1 X16.76 Y21.54 F3500.00
G1 X17.37 Y21.44 F3500.00
G1 X17.73 Y21.38 F3500.00
G1 X17.84 Y21.36 F3500.00
G1 X19.24 Y21.11 F3500.00
G1 X19.68 Y21.02 F3500.00
G1 X19.82 Y21.03 F3500.00
G1 X19.78 Y21.08 F3500.00
G1 X19.78 Y21.10 F3500.00
G1 X19.84 Y21.05 F3500.00
G1 X19.94 Y21.02 F3500.00
G1 X19.87 Y21.14 F3500.00
G1 X19.85 Y21.18 F3500.00
G1 X19.89 Y21.49 F3500.00
G1 X19.85 Y22.05 F3500.00
G1 X19.82 Y22.38 F3500.00
G1 X19.78 Y22.50 F3500.00
G1 X19.75 Y22.62 F3500.00
G1 X19.72 Y22.89 F3500.00
G1 X19.56 Y23.97 F3500.00
G1 X19.50 Y24.28 F3500.00
G1 X19.44 Y24.67 F3500.00
G1 X19.35 Y25.40 F3500.00
G1 X19.26 Y26.20 F3500.00
G1 X19.18 Y26.67 F3500.00
G1 X19.10 Y27.16 F3500.00
G1 X18.97 Y27.88 F3500.00
G1 X18.81 Y28.11 F3500.00
G1 X18.77 Y28.16 F3500.00
G1 X18.73 Y28.19 F3500.00
G1 X18.70 Y28.22 F3500.00
G1 X18.65 Y28.29 F3500.00
G1 X18.58 Y28.36 F3500.00
G1 X18.38 Y28.40 F3500.00
G1 X18.37 Y28.44 F3500.00
G1 X18.33 Y28.55 F3500.00
G1 X18.27 Y28.60 F3500.00
G1 X18.23 Y28.63 F3500.00
G1 X18.19 Y28.66 F3500.00
G1 X18.07 Y28.65 F3500.00
G1 X18.06 Y28.69 F3500.00
G1 X17.88 Y28.85 F3500.00
G1 X17.85 Y28.88 F3500.00
G1 X17.81 Y28.91 F3500.00
G1 X17.76 Y28.92 F3500.00
G1 X17.72 Y28.95 F3500.00
G1 X17.69 Y29.00 F3500.00
G1 X17.45 Y29.10 F3500.00
G1 X17.43 Y29.14 F3500.00
G1 X17.37 Y29.22 F3500.00
G1 X17.31 Y29.27 F3500.00
G1 X17.22 Y29.32 F3500.00
G1 X17.14 Y29.40 F3500.00
G1 X17.09 Y29.44 F3500.00
G1 X17.05 Y29.45 F3500.00
G1 X17.00 Y29.48 F3500.00
G1 X16.96 Y29.52 F3500.00
G1 X16.91 Y29.57 F3500.00
G1 X16.83 Y29.63 F3500.00
G1 X16.78 Y29.66 F3500.00
G1 X16.73 Y29.67 F3500.00
G1 X16.68 Y29.70 F3500.00
G1 X16.65 Y29.78 F3500.00
G1 X16.59 Y29.82 F3500.00
G1 X16.51 Y29.89 F3500.00
G1 X16.46 Y29.90 F3500.00
G1 X16.41 Y29.91 F3500.00
G1 X16.39 Y29.95 F3500.00
G1 X16.38 Y29.99 F3500.00
G1 X16.32 Y30.01 F3500.00
G1 X16.26 Y30.04 F3500.00
G1 X16.19 Y30.11 F3500.00
G1 X16.12 Y30.16 F3500.00
G1 X15.94 Y30.21 F3500.00
G1 X15.92 Y30.25 F3500.00
G1 X15.87 Y30.33 F3500.00
G1 X15.81 Y30.40 F3500.00
G1 X15.62 Y30.46 F3500.00
G1 X15.60 Y30.49 F3500.00
G1 X15.54 Y30.57 F3500.00
G1 X15.48 Y30.63 F3500.00
G1 X15.40 Y30.68 F3500.00
G1 X15.33 Y30.75 F3500.00
G1 X15.23 Y30.78 F3500.00
G1 X15.22 Y30.79 F3500.00
G1 X15.19 Y30.84 F3500.00
G1 X15.16 Y30.87 F3500.00
G1 X15.08 Y30.94 F3500.00
G1 X15.00 Y30.99 F3500.00
G1 X14.96 Y31.01 F3500.00
G1 X14.91 Y31.02 F3500.00
G1 X14.87 Y31.05 F3500.00
G1 X14.85 Y31.10 F3500.00
G1 X14.77 Y31.18 F3500.00
G1 X14.69 Y31.24 F3500.00
G1 X14.63 Y31.26 F3500.00
G1 X14.59 Y31.27 F3500.00
G1 X14.57 Y31.31 F3500.00
G1 X14.55 Y31.34 F3500.00
G1 X14.51 Y31.37 F3500.00
G1 X14.46 Y31.38 F3500.00
G1 X14.40 Y31.41 F3500.00
G1 X14.35 Y31.46 F3500.00
G1 X14.28 Y31.54 F3500.00
G1 X14.20 Y31.59 F3500.00
G1 X13.95 Y31.68 F3500.00
G1 X13.95 Y31.69 F3500.00
G1 X13.76 Y31.87 F3500.00
G1 X13.73 Y31.91 F3500.00
G1 X13.68 Y31.93 F3500.00
G1 X13.63 Y31.94 F3500.00
G1 X13.58 Y31.99 F3500.00
G1 X13.51 Y32.05 F3500.00
G1 X13.43 Y32.10 F3500.00
G1 X13.36 Y32.18 F3500.00
G1 X13.34 Y32.23 F3500.00
G1 X13.20 Y32.56 F3500.00
G1 X13.16 Y32.66 F3500.00
G1 X13.13 Y32.75 F3500.00
G1 X13.10 Y32.96 F3500.00
G1 X12.88 Y34.18 F3500.00
G1 X12.84 Y34.30 F3500.00
G1 X12.80 Y34.48 F3500.00
G1 X12.68 Y35.35 F3500.00
G1 X12.68 Y35.41 F3500.00
G1 X12.65 Y35.46 F3500.00
G1 X12.65 Y35.49 F3500.00
G1 X12.65 Y35.55 F3500.00
G1 X12.64 Y35.59 F3500.00
G1 X12.64 Y35.69 F3500.00
G1 X12.57 Y35.64 F3500.00
G1 X12.52 Y35.58 F3500.00
G1 X12.52 Y35.62 F3500.00
G1 X12.55 Y35.67 F3500.00
G1 X11.99 Y35.72 F3500.00
G1 X9.98 Y35.90 F3500.00
G1 X9.35 Y35.94 F3500.00
G1 X8.96 Y35.98 F3500.00
G1 X8.36 Y36.05 F3500.00
G1 X7.61 Y36.13 F3500.00
G1 X7.40 Y36.18 F3500.00
G1 X7.40 Y36.18 F3500.00
M300 S50.00 (pen up)
G4 P150 (wait 150ms)

(Polyline consisting of 30 segments.)
G1 X37.51 Y36.12 F3500.00
M300 S30.00 (pen down)
G4 P150 (wait 150ms)
G1 X37.19 Y36.11 F3500.00
G1 X36.37 Y36.05 F3500.00
G1 X35.75 Y35.97 F3500.00
G1 X35.10 Y35.90 F3500.00
G1 X34.43 Y35.85 F3500.00
G1 X33.75 Y35.80 F3500.00
G1 X32.33 Y35.67 F3500.00
G1 X32.36 Y35.59 F3500.00
G1 X32.36 Y35.57 F3500.00
G1 X32.33 Y35.51 F3500.00
G1 X32.33 Y35.46 F3500.00
G1 X32.28 Y35.36 F3500.00
G1 X32.23 Y35.01 F3500.00
G1 X32.18 Y34.64 F3500.00
G1 X32.14 Y34.47 F3500.00
G1 X31.88 Y33.20 F3500.00
G1 X31.81 Y32.95 F3500.00
G1 X31.77 Y32.73 F3500.00
G1 X31.57 Y32.20 F3500.00
G1 X31.52 Y32.14 F3500.00
G1 X31.44 Y32.07 F3500.00
G1 X31.38 Y32.02 F3500.00
G1 X31.33 Y32.00 F3500.00
G1 X31.28 Y31.99 F3500.00
G1 X31.21 Y31.92 F3500.00
G1 X31.13 Y31.87 F3500.00
G1 X31.09 Y31.84 F3500.00
G1 X31.06 Y31.78 F3500.00
G1 X31.05 Y31.75 F3500.00
G1 X30.90 Y31.69 F3500.00
G1 X30.83 Y31.65 F3500.00
G1 X30.75 Y31.58 F3500.00
G1 X30.69 Y31.54 F3500.00
G1 X30.62 Y31.45 F3500.00
G1 X30.60 Y31.39 F3500.00
G1 X30.42 Y31.32 F3500.00
G1 X30.37 Y31.28 F3500.00
G1 X30.31 Y31.22 F3500.00
G1 X30.28 Y31.17 F3500.00
G1 X30.16 Y31.18 F3500.00
G1 X30.10 Y31.09 F3500.00
G1 X30.05 Y31.03 F3500.00
G1 X29.99 Y30.97 F3500.00
G1 X29.96 Y30.93 F3500.00
G1 X29.78 Y30.87 F3500.00
G1 X29.72 Y30.82 F3500.00
G1 X29.65 Y30.72 F3500.00
G1 X29.64 Y30.68 F3500.00
G1 X29.46 Y30.63 F3500.00
G1 X29.40 Y30.57 F3500.00
G1 X29.34 Y30.52 F3500.00
G1 X29.27 Y30.51 F3500.00
G1 X29.20 Y30.49 F3500.00
G1 X29.19 Y30.45 F3500.00
G1 X29.09 Y30.33 F3500.00
G1 X29.05 Y30.30 F3500.00
G1 X29.01 Y30.27 F3500.00
G1 X28.95 Y30.26 F3500.00
G1 X28.88 Y30.25 F3500.00
G1 X28.79 Y30.17 F3500.00
G1 X28.70 Y30.07 F3500.00
G1 X28.65 Y30.02 F3500.00
G1 X28.60 Y29.98 F3500.00
G1 X28.54 Y29.97 F3500.00
G1 X28.50 Y29.96 F3500.00
G1 X28.44 Y29.90 F3500.00
G1 X28.37 Y29.84 F3500.00
G1 X28.28 Y29.79 F3500.00
G1 X28.18 Y29.72 F3500.00
G1 X28.07 Y29.62 F3500.00
G1 X27.96 Y29.53 F3500.00
G1 X27.94 Y29.50 F3500.00
G1 X27.80 Y29.45 F3500.00
G1 X27.77 Y29.41 F3500.00
G1 X27.64 Y29.29 F3500.00
G1 X27.58 Y29.25 F3500.00
G1 X27.52 Y29.19 F3500.00
G1 X27.49 Y29.15 F3500.00
G1 X27.32 Y29.09 F3500.00
G1 X27.30 Y29.06 F3500.00
G1 X27.20 Y28.92 F3500.00
G1 X27.18 Y28.89 F3500.00
G1 X27.00 Y28.85 F3500.00
G1 X26.94 Y28.79 F3500.00
G1 X26.88 Y28.73 F3500.00
G1 X26.84 Y28.70 F3500.00
G1 X26.80 Y28.65 F3500.00
G1 X26.73 Y28.63 F3500.00
G1 X26.67 Y28.60 F3500.00
G1 X26.65 Y28.55 F3500.00
G1 X26.49 Y28.40 F3500.00
G1 X26.43 Y28.40 F3500.00
G1 X26.36 Y28.36 F3500.00
G1 X26.35 Y28.31 F3500.00
G1 X26.33 Y28.27 F3500.00
G1 X26.29 Y28.25 F3500.00
G1 X26.18 Y28.15 F3500.00
G1 X26.14 Y28.15 F3500.00
G1 X26.09 Y28.11 F3500.00
G1 X26.06 Y28.08 F3500.00
G1 X26.03 Y27.97 F3500.00
G1 X26.00 Y27.87 F3500.00
G1 X25.93 Y27.65 F3500.00
G1 X25.86 Y27.28 F3500.00
G1 X25.83 Y26.96 F3500.00
G1 X25.79 Y26.76 F3500.00
G1 X25.69 Y26.24 F3500.00
G1 X25.47 Y24.59 F3500.00
G1 X25.39 Y24.20 F3500.00
G1 X25.30 Y23.44 F3500.00
G1 X25.23 Y22.87 F3500.00
G1 X25.19 Y22.71 F3500.00
G1 X25.15 Y22.49 F3500.00
G1 X25.01 Y21.29 F3500.00
G1 X25.04 Y21.19 F3500.00
G1 X25.04 Y21.17 F3500.00
G1 X25.00 Y21.05 F3500.00
G1 X25.02 Y21.02 F3500.00
G1 X25.45 Y21.08 F3500.00
G1 X26.15 Y21.17 F3500.00
G1 X27.05 Y21.31 F3500.00
G1 X27.14 Y21.35 F3500.00
G1 X27.31 Y21.40 F3500.00
G1 X27.80 Y21.47 F3500.00
G1 X28.45 Y21.58 F3500.00
G1 X29.10 Y21.71 F3500.00
G1 X29.27 Y21.75 F3500.00
G1 X29.77 Y21.83 F3500.00
G1 X30.38 Y21.92 F3500.00
G1 X30.93 Y22.18 F3500.00
G1 X30.94 Y22.20 F3500.00
G1 X31.10 Y22.27 F3500.00
G1 X31.13 Y22.29 F3500.00
G1 X31.35 Y22.41 F3500.00
G1 X31.38 Y22.46 F3500.00
G1 X31.42 Y22.49 F3500.00
G1 X31.49 Y22.50 F3500.00
G1 X31.55 Y22.51 F3500.00
G1 X31.66 Y22.61 F3500.00
G1 X31.76 Y22.72 F3500.00
G1 X31.81 Y22.78 F3500.00
G1 X31.98 Y22.95 F3500.00
G1 X32.00 Y22.98 F3500.00
G1 X32.18 Y23.03 F3500.00
G1 X32.21 Y23.07 F3500.00
G1 X32.26 Y23.11 F3500.00
G1 X32.32 Y23.18 F3500.00
G1 X32.38 Y23.24 F3500.00
G1 X32.46 Y23.29 F3500.00
G1 X32.53 Y23.36 F3500.00
G1 X32.58 Y23.40 F3500.00
G1 X32.63 Y23.43 F3500.00
G1 X32.71 Y23.51 F3500.00
G1 X32.78 Y23.56 F3500.00
G1 X32.84 Y23.61 F3500.00
G1 X32.92 Y23.68 F3500.00
G1 X32.97 Y23.73 F3500.00
G1 X33.04 Y23.78 F3500.00
G1 X33.09 Y23.84 F3500.00
G1 X33.23 Y23.92 F3500.00
G1 X33.30 Y23.97 F3500.00
G1 X33.38 Y24.02 F3500.00
G1 X33.48 Y24.08 F3500.00
G1 X33.56 Y24.15 F3500.00
G1 X33.58 Y24.21 F3500.00
G1 X33.59 Y24.24 F3500.00
G1 X33.63 Y24.28 F3500.00
G1 X33.78 Y24.35 F3500.00
G1 X33.84 Y24.40 F3500.00
G1 X33.90 Y24.47 F3500.00
G1 X33.94 Y24.52 F3500.00
G1 X33.97 Y24.56 F3500.00
G1 X34.05 Y24.57 F3500.00
G1 X34.11 Y24.59 F3500.00
G1 X34.13 Y24.63 F3500.00
G1 X34.17 Y24.67 F3500.00
G1 X34.23 Y24.72 F3500.00
G1 X34.29 Y24.82 F3500.00
G1 X34.29 Y24.86 F3500.00
G1 X34.37 Y24.82 F3500.00
G1 X34.44 Y24.95 F3500.00
G1 X34.47 Y24.97 F3500.00
G1 X34.62 Y25.03 F3500.00
G1 X34.70 Y25.07 F3500.00
G1 X34.78 Y25.13 F3500.00
G1 X34.80 Y25.17 F3500.00
G1 X34.84 Y25.25 F3500.00
G1 X34.85 Y25.30 F3500.00
G1 X35.03 Y25.34 F3500.00
G1 X35.09 Y25.40 F3500.00
G1 X35.16 Y25.47 F3500.00
G1 X35.19 Y25.50 F3500.00
G1 X35.30 Y25.52 F3500.00
G1 X35.30 Y25.60 F3500.00
G1 X35.34 Y25.61 F3500.00
G1 X35.47 Y25.67 F3500.00
G1 X35.48 Y25.80 F3500.00
G1 X35.51 Y25.83 F3500.00
G1 X35.55 Y25.86 F3500.00
G1 X35.60 Y25.96 F3500.00
G1 X35.78 Y26.72 F3500.00
G1 X35.84 Y27.07 F3500.00
G1 X35.90 Y27.35 F3500.00
G1 X35.94 Y27.52 F3500.00
G1 X36.00 Y27.76 F3500.00
G1 X36.07 Y28.11 F3500.00
G1 X36.13 Y28.47 F3500.00
G1 X36.27 Y29.16 F3500.00
G1 X36.35 Y29.47 F3500.00
G1 X36.44 Y29.98 F3500.00
G1 X36.51 Y30.34 F3500.00
G1 X36.55 Y30.49 F3500.00
G1 X36.62 Y30.87 F3500.00
G1 X36.71 Y31.36 F3500.00
G1 X36.77 Y31.75 F3500.00
G1 X36.87 Y32.27 F3500.00
G1 X36.91 Y32.38 F3500.00
G1 X37.19 Y33.80 F3500.00
G1 X37.30 Y34.37 F3500.00
G1 X37.51 Y35.51 F3500.00
G1 X37.54 Y35.57 F3500.00
G1 X37.48 Y35.60 F3500.00
G1 X37.44 Y35.65 F3500.00
G1 X37.51 Y35.72 F3500.00
G1 X37.57 Y35.90 F3500.00
G1 X37.56 Y36.08 F3500.00
G1 X37.48 Y36.06 F3500.00
G1 X37.51 Y36.12 F3500.00
G1 X37.51 Y36.12 F3500.00
M300 S50.00 (pen up)
G4 P150 (wait 150ms)

(Polyline consisting of 30 segments.)
G1 X36.94 Y35.44 F3500.00
M300 S30.00 (pen down)
G4 P150 (wait 150ms)
G1 X36.91 Y35.35 F3500.00
G1 X36.87 Y35.22 F3500.00
G1 X36.82 Y34.99 F3500.00
G1 X36.77 Y34.68 F3500.00
G1 X36.66 Y34.03 F3500.00
G1 X36.55 Y33.48 F3500.00
G1 X36.50 Y33.26 F3500.00
G1 X36.26 Y32.05 F3500.00
G1 X36.16 Y31.61 F3500.00
G1 X36.08 Y31.10 F3500.00
G1 X35.99 Y30.57 F3500.00
G1 X35.92 Y30.24 F3500.00
G1 X35.86 Y29.98 F3500.00
G1 X35.82 Y29.77 F3500.00
G1 X35.72 Y29.26 F3500.00
G1 X35.62 Y28.73 F3500.00
G1 X35.55 Y28.43 F3500.00
G1 X35.51 Y28.12 F3500.00
G1 X35.36 Y27.31 F3500.00
G1 X35.28 Y27.03 F3500.00
G1 X35.24 Y26.92 F3500.00
G1 X35.08 Y26.16 F3500.00
G1 X34.95 Y26.06 F3500.00
G1 X34.90 Y25.99 F3500.00
G1 X34.83 Y25.94 F3500.00
G1 X34.77 Y25.86 F3500.00
G1 X34.72 Y25.81 F3500.00
G1 X34.58 Y25.74 F3500.00
G1 X34.51 Y25.69 F3500.00
G1 X34.45 Y25.64 F3500.00
G1 X34.42 Y25.60 F3500.00
G1 X34.38 Y25.55 F3500.00
G1 X34.32 Y25.52 F3500.00
G1 X34.26 Y25.49 F3500.00
G1 X34.25 Y25.45 F3500.00
G1 X34.23 Y25.42 F3500.00
G1 X34.18 Y25.41 F3500.00
G1 X34.12 Y25.39 F3500.00
G1 X34.05 Y25.33 F3500.00
G1 X33.97 Y25.27 F3500.00
G1 X33.94 Y25.24 F3500.00
G1 X33.90 Y25.19 F3500.00
G1 X33.85 Y25.16 F3500.00
G1 X33.81 Y25.14 F3500.00
G1 X33.74 Y25.08 F3500.00
G1 X33.65 Y25.03 F3500.00
G1 X33.60 Y24.97 F3500.00
G1 X33.53 Y24.88 F3500.00
G1 X33.53 Y24.84 F3500.00
G1 X33.45 Y24.89 F3500.00
G1 X33.38 Y24.74 F3500.00
G1 X33.35 Y24.72 F3500.00
G1 X33.21 Y24.67 F3500.00
G1 X33.13 Y24.61 F3500.00
G1 X33.05 Y24.56 F3500.00
G1 X33.01 Y24.52 F3500.00
G1 X32.98 Y24.46 F3500.00
G1 X32.93 Y24.40 F3500.00
G1 X32.86 Y24.35 F3500.00
G1 X32.78 Y24.30 F3500.00
G1 X32.72 Y24.29 F3500.00
G1 X32.66 Y24.22 F3500.00
G1 X32.60 Y24.15 F3500.00
G1 X32.51 Y24.08 F3500.00
G1 X32.45 Y24.04 F3500.00
G1 X32.40 Y23.98 F3500.00
G1 X32.33 Y23.97 F3500.00
G1 X32.28 Y23.91 F3500.00
G1 X32.22 Y23.84 F3500.00
G1 X32.13 Y23.77 F3500.00
G1 X32.05 Y23.70 F3500.00
G1 X32.03 Y23.67 F3500.00
G1 X31.99 Y23.64 F3500.00
G1 X31.94 Y23.62 F3500.00
G1 X31.88 Y23.61 F3500.00
G1 X31.81 Y23.55 F3500.00
G1 X31.73 Y23.48 F3500.00
G1 X31.67 Y23.40 F3500.00
G1 X31.60 Y23.35 F3500.00
G1 X31.58 Y23.32 F3500.00
G1 X31.54 Y23.28 F3500.00
G1 X31.46 Y23.23 F3500.00
G1 X31.38 Y23.17 F3500.00
G1 X31.36 Y23.16 F3500.00
G1 X31.30 Y23.12 F3500.00
G1 X31.21 Y23.04 F3500.00
G1 X31.17 Y22.99 F3500.00
G1 X31.11 Y22.95 F3500.00
G1 X31.03 Y22.88 F3500.00
G1 X30.99 Y22.85 F3500.00
G1 X30.96 Y22.82 F3500.00
G1 X30.90 Y22.80 F3500.00
G1 X30.84 Y22.80 F3500.00
G1 X30.84 Y22.71 F3500.00
G1 X30.81 Y22.66 F3500.00
G1 X30.79 Y22.65 F3500.00
G1 X30.67 Y22.64 F3500.00
G1 X29.81 Y22.49 F3500.00
G1 X29.50 Y22.42 F3500.00
G1 X29.14 Y22.33 F3500.00
G1 X28.47 Y22.22 F3500.00
G1 X27.86 Y22.13 F3500.00
G1 X27.55 Y22.05 F3500.00
G1 X27.18 Y21.98 F3500.00
G1 X25.90 Y21.77 F3500.00
G1 X25.66 Y21.69 F3500.00
G1 X25.70 Y22.30 F3500.00
G1 X25.75 Y22.72 F3500.00
G1 X25.80 Y23.07 F3500.00
G1 X25.86 Y23.37 F3500.00
G1 X25.93 Y23.86 F3500.00
G1 X26.09 Y25.11 F3500.00
G1 X26.12 Y25.27 F3500.00
G1 X26.23 Y25.94 F3500.00
G1 X26.44 Y27.31 F3500.00
G1 X26.49 Y27.50 F3500.00
G1 X26.54 Y27.68 F3500.00
G1 X26.55 Y27.75 F3500.00
G1 X26.60 Y27.78 F3500.00
G1 X26.65 Y27.80 F3500.00
G1 X26.76 Y27.88 F3500.00
G1 X26.87 Y27.99 F3500.00
G1 X26.88 Y28.04 F3500.00
G1 X27.03 Y28.10 F3500.00
G1 X27.08 Y28.13 F3500.00
G1 X27.13 Y28.16 F3500.00
G1 X27.18 Y28.21 F3500.00
G1 X27.25 Y28.32 F3500.00
G1 X27.25 Y28.35 F3500.00
G1 X27.37 Y28.34 F3500.00
G1 X27.41 Y28.38 F3500.00
G1 X27.45 Y28.41 F3500.00
G1 X27.51 Y28.47 F3500.00
G1 X27.57 Y28.52 F3500.00
G1 X27.66 Y28.57 F3500.00
G1 X27.73 Y28.62 F3500.00
G1 X27.75 Y28.70 F3500.00
G1 X27.90 Y28.77 F3500.00
G1 X27.98 Y28.83 F3500.00
G1 X28.06 Y28.88 F3500.00
G1 X28.08 Y28.92 F3500.00
G1 X28.28 Y29.04 F3500.00
G1 X28.36 Y29.10 F3500.00
G1 X28.44 Y29.19 F3500.00
G1 X28.45 Y29.22 F3500.00
G1 X28.59 Y29.27 F3500.00
G1 X28.68 Y29.32 F3500.00
G1 X28.75 Y29.42 F3500.00
G1 X28.77 Y29.47 F3500.00
G1 X28.92 Y29.52 F3500.00
G1 X29.00 Y29.57 F3500.00
G1 X29.07 Y29.65 F3500.00
G1 X29.09 Y29.68 F3500.00
G1 X29.24 Y29.75 F3500.00
G1 X29.32 Y29.82 F3500.00
G1 X29.40 Y29.89 F3500.00
G1 X29.45 Y29.93 F3500.00
G1 X29.52 Y29.97 F3500.00
G1 X29.57 Y30.02 F3500.00
G1 X29.72 Y30.13 F3500.00
G1 X29.77 Y30.16 F3500.00
G1 X29.84 Y30.23 F3500.00
G1 X29.89 Y30.27 F3500.00
G1 X30.09 Y30.40 F3500.00
G1 X30.13 Y30.45 F3500.00
G1 X30.16 Y30.48 F3500.00
G1 X30.24 Y30.49 F3500.00
G1 X30.30 Y30.51 F3500.00
G1 X30.36 Y30.57 F3500.00
G1 X30.42 Y30.63 F3500.00
G1 X30.46 Y30.66 F3500.00
G1 X30.48 Y30.70 F3500.00
G1 X30.50 Y30.72 F3500.00
G1 X30.69 Y30.79 F3500.00
G1 X30.75 Y30.86 F3500.00
G1 X30.80 Y30.94 F3500.00
G1 X30.82 Y30.96 F3500.00
G1 X31.00 Y31.02 F3500.00
G1 X31.06 Y31.07 F3500.00
G1 X31.13 Y31.14 F3500.00
G1 X31.20 Y31.16 F3500.00
G1 X31.26 Y31.18 F3500.00
G1 X31.32 Y31.24 F3500.00
G1 X31.38 Y31.31 F3500.00
G1 X31.42 Y31.34 F3500.00
G1 X31.45 Y31.37 F3500.00
G1 X31.51 Y31.39 F3500.00
G1 X31.58 Y31.42 F3500.00
G1 X31.64 Y31.49 F3500.00
G1 X31.70 Y31.55 F3500.00
G1 X31.78 Y31.61 F3500.00
G1 X31.86 Y31.69 F3500.00
G1 X31.88 Y31.71 F3500.00
G1 X31.96 Y31.71 F3500.00
G1 X31.97 Y31.80 F3500.00
G1 X32.02 Y31.84 F3500.00
G1 X32.04 Y31.89 F3500.00
G1 X32.09 Y31.94 F3500.00
G1 X32.23 Y32.11 F3500.00
G1 X32.35 Y32.76 F3500.00
G1 X32.45 Y33.26 F3500.00
G1 X32.51 Y33.49 F3500.00
G1 X32.64 Y34.23 F3500.00
G1 X32.74 Y34.82 F3500.00
G1 X32.78 Y34.90 F3500.00
G1 X32.80 Y34.99 F3500.00
G1 X33.56 Y35.15 F3500.00
G1 X34.34 Y35.22 F3500.00
G1 X34.86 Y35.26 F3500.00
G1 X35.20 Y35.29 F3500.00
G1 X35.41 Y35.33 F3500.00
G1 X35.77 Y35.36 F3500.00
G1 X36.43 Y35.42 F3500.00
G1 X36.94 Y35.44 F3500.00
G1 X36.94 Y35.44 F3500.00
M300 S50.00 (pen up)
G4 P150 (wait 150ms)

(Polyline consisting of 30 segments.)
G1 X8.32 Y35.42 F3500.00
M300 S30.00 (pen down)
G4 P150 (wait 150ms)
G1 X9.24 Y35.36 F3500.00
G1 X9.86 Y35.30 F3500.00
G1 X10.14 Y35.25 F3500.00
G1 X11.91 Y35.10 F3500.00
G1 X12.17 Y35.07 F3500.00
G1 X12.17 Y34.92 F3500.00
G1 X12.20 Y34.75 F3500.00
G1 X12.28 Y34.37 F3500.00
G1 X12.46 Y33.32 F3500.00
G1 X12.49 Y33.04 F3500.00
G1 X12.52 Y32.91 F3500.00
G1 X12.58 Y32.70 F3500.00
G1 X12.78 Y31.93 F3500.00
G1 X12.81 Y31.89 F3500.00
G1 X12.85 Y31.85 F3500.00
G1 X12.91 Y31.80 F3500.00
G1 X12.98 Y31.73 F3500.00
G1 X13.02 Y31.69 F3500.00
G1 X13.10 Y31.63 F3500.00
G1 X13.20 Y31.59 F3500.00
G1 X13.30 Y31.51 F3500.00
G1 X13.41 Y31.42 F3500.00
G1 X13.49 Y31.36 F3500.00
G1 X13.57 Y31.31 F3500.00
G1 X13.65 Y31.24 F3500.00
G1 X13.73 Y31.21 F3500.00
G1 X13.87 Y31.07 F3500.00
G1 X13.99 Y30.99 F3500.00
G1 X14.12 Y30.92 F3500.00
G1 X14.20 Y30.87 F3500.00
G1 X14.35 Y30.82 F3500.00
G1 X14.37 Y30.78 F3500.00
G1 X14.45 Y30.68 F3500.00
G1 X14.52 Y30.63 F3500.00
G1 X14.67 Y30.57 F3500.00
G1 X14.69 Y30.53 F3500.00
G1 X14.77 Y30.47 F3500.00
G1 X14.85 Y30.41 F3500.00
G1 X15.04 Y30.27 F3500.00
G1 X15.05 Y30.23 F3500.00
G1 X15.08 Y30.20 F3500.00
G1 X15.15 Y30.19 F3500.00
G1 X15.20 Y30.16 F3500.00
G1 X15.23 Y30.14 F3500.00
G1 X15.36 Y30.02 F3500.00
G1 X15.37 Y29.98 F3500.00
G1 X15.41 Y29.96 F3500.00
G1 X15.48 Y29.94 F3500.00
G1 X15.52 Y29.91 F3500.00
G1 X15.54 Y29.88 F3500.00
G1 X15.62 Y29.82 F3500.00
G1 X15.68 Y29.76 F3500.00
G1 X15.78 Y29.68 F3500.00
G1 X15.87 Y29.63 F3500.00
G1 X15.95 Y29.57 F3500.00
G1 X16.01 Y29.52 F3500.00
G1 X16.05 Y29.47 F3500.00
G1 X16.18 Y29.47 F3500.00
G1 X16.19 Y29.42 F3500.00
G1 X16.27 Y29.32 F3500.00
G1 X16.33 Y29.27 F3500.00
G1 X16.40 Y29.22 F3500.00
G1 X16.51 Y29.15 F3500.00
G1 X16.59 Y29.12 F3500.00
G1 X16.68 Y29.09 F3500.00
G1 X16.64 Y29.06 F3500.00
G1 X16.72 Y28.97 F3500.00
G1 X16.79 Y28.92 F3500.00
G1 X16.94 Y28.86 F3500.00
G1 X16.96 Y28.79 F3500.00
G1 X17.02 Y28.76 F3500.00
G1 X17.10 Y28.68 F3500.00
G1 X17.29 Y28.62 F3500.00
G1 X17.31 Y28.58 F3500.00
G1 X17.37 Y28.50 F3500.00
G1 X17.43 Y28.45 F3500.00
G1 X17.61 Y28.40 F3500.00
G1 X17.63 Y28.35 F3500.00
G1 X17.64 Y28.27 F3500.00
G1 X17.74 Y28.19 F3500.00
G1 X17.89 Y28.14 F3500.00
G1 X17.94 Y28.12 F3500.00
G1 X17.98 Y28.10 F3500.00
G1 X18.01 Y28.07 F3500.00
G1 X18.12 Y27.95 F3500.00
G1 X18.14 Y27.92 F3500.00
G1 X18.23 Y27.84 F3500.00
G1 X18.35 Y27.77 F3500.00
G1 X18.37 Y27.75 F3500.00
G1 X18.49 Y27.38 F3500.00
G1 X18.54 Y27.20 F3500.00
G1 X18.59 Y26.90 F3500.00
G1 X18.68 Y26.22 F3500.00
G1 X18.77 Y25.46 F3500.00
G1 X18.85 Y25.07 F3500.00
G1 X18.92 Y24.65 F3500.00
G1 X19.06 Y23.46 F3500.00
G1 X19.11 Y23.09 F3500.00
G1 X19.18 Y22.78 F3500.00
G1 X19.31 Y21.81 F3500.00
G1 X18.44 Y21.87 F3500.00
G1 X17.78 Y21.98 F3500.00
G1 X17.46 Y22.06 F3500.00
G1 X17.31 Y22.10 F3500.00
G1 X16.23 Y22.28 F3500.00
G1 X15.84 Y22.34 F3500.00
G1 X15.55 Y22.41 F3500.00
G1 X15.17 Y22.49 F3500.00
G1 X14.23 Y22.65 F3500.00
G1 X14.13 Y22.71 F3500.00
G1 X14.09 Y22.76 F3500.00
G1 X14.06 Y22.81 F3500.00
G1 X13.85 Y22.99 F3500.00
G1 X13.74 Y23.04 F3500.00
G1 X13.67 Y23.10 F3500.00
G1 X13.62 Y23.14 F3500.00
G1 X13.59 Y23.17 F3500.00
G1 X13.51 Y23.23 F3500.00
G1 X13.43 Y23.28 F3500.00
G1 X13.37 Y23.33 F3500.00
G1 X13.31 Y23.40 F3500.00
G1 X13.27 Y23.41 F3500.00
G1 X13.21 Y23.44 F3500.00
G1 X13.17 Y23.49 F3500.00
G1 X13.16 Y23.53 F3500.00
G1 X13.13 Y23.55 F3500.00
G1 X13.06 Y23.59 F3500.00
G1 X13.04 Y23.63 F3500.00
G1 X12.94 Y23.70 F3500.00
G1 X12.80 Y23.77 F3500.00
G1 X12.76 Y23.84 F3500.00
G1 X12.71 Y23.87 F3500.00
G1 X12.67 Y23.89 F3500.00
G1 X12.65 Y23.92 F3500.00
G1 X12.63 Y23.95 F3500.00
G1 X12.53 Y24.01 F3500.00
G1 X12.44 Y24.06 F3500.00
G1 X12.33 Y24.17 F3500.00
G1 X12.31 Y24.21 F3500.00
G1 X12.24 Y24.22 F3500.00
G1 X12.20 Y24.24 F3500.00
G1 X12.17 Y24.28 F3500.00
G1 X12.12 Y24.31 F3500.00
G1 X12.06 Y24.37 F3500.00
G1 X11.99 Y24.41 F3500.00
G1 X11.86 Y24.52 F3500.00
G1 X11.79 Y24.57 F3500.00
G1 X11.73 Y24.61 F3500.00
G1 X11.67 Y24.66 F3500.00
G1 X11.64 Y24.70 F3500.00
G1 X11.61 Y24.74 F3500.00
G1 X11.53 Y24.80 F3500.00
G1 X11.44 Y24.87 F3500.00
G1 X11.29 Y24.93 F3500.00
G1 X11.24 Y24.95 F3500.00
G1 X11.28 Y25.00 F3500.00
G1 X11.25 Y25.03 F3500.00
G1 X11.19 Y25.06 F3500.00
G1 X11.13 Y25.11 F3500.00
G1 X11.07 Y25.19 F3500.00
G1 X10.99 Y25.26 F3500.00
G1 X10.91 Y25.32 F3500.00
G1 X10.87 Y25.34 F3500.00
G1 X10.82 Y25.36 F3500.00
G1 X10.76 Y25.43 F3500.00
G1 X10.70 Y25.49 F3500.00
G1 X10.65 Y25.52 F3500.00
G1 X10.60 Y25.56 F3500.00
G1 X10.55 Y25.60 F3500.00
G1 X10.52 Y25.64 F3500.00
G1 X10.48 Y25.66 F3500.00
G1 X10.43 Y25.67 F3500.00
G1 X10.41 Y25.71 F3500.00
G1 X10.40 Y25.74 F3500.00
G1 X10.34 Y25.77 F3500.00
G1 X10.27 Y25.78 F3500.00
G1 X10.23 Y25.81 F3500.00
G1 X10.21 Y25.86 F3500.00
G1 X10.14 Y25.94 F3500.00
G1 X10.07 Y25.99 F3500.00
G1 X9.90 Y26.04 F3500.00
G1 X9.87 Y26.07 F3500.00
G1 X9.86 Y26.16 F3500.00
G1 X9.74 Y26.74 F3500.00
G1 X9.68 Y26.98 F3500.00
G1 X9.55 Y27.70 F3500.00
G1 X9.47 Y28.15 F3500.00
G1 X9.40 Y28.49 F3500.00
G1 X9.36 Y28.62 F3500.00
G1 X9.30 Y28.87 F3500.00
G1 X9.21 Y29.36 F3500.00
G1 X9.11 Y29.89 F3500.00
G1 X9.04 Y30.19 F3500.00
G1 X8.97 Y30.42 F3500.00
G1 X8.87 Y30.98 F3500.00
G1 X8.78 Y31.56 F3500.00
G1 X8.72 Y31.84 F3500.00
G1 X8.65 Y32.09 F3500.00
G1 X8.57 Y32.55 F3500.00
G1 X8.49 Y33.08 F3500.00
G1 X8.43 Y33.41 F3500.00
G1 X8.34 Y33.73 F3500.00
G1 X8.08 Y35.11 F3500.00
G1 X8.05 Y35.24 F3500.00
G1 X8.02 Y35.39 F3500.00
G1 X8.32 Y35.42 F3500.00
G1 X8.32 Y35.42 F3500.00
M300 S50.00 (pen up)
G4 P150 (wait 150ms)

(Polyline consisting of 30 segments.)
G1 X22.90 Y34.19 F3500.00
M300 S30.00 (pen down)
G4 P150 (wait 150ms)
G1 X17.35 Y34.07 F3500.00
G1 X17.11 Y34.04 F3500.00
G1 X16.90 Y33.99 F3500.00
G1 X16.95 Y33.94 F3500.00
G1 X17.00 Y33.88 F3500.00
G1 X17.03 Y33.85 F3500.00
G1 X17.10 Y33.82 F3500.00
G1 X17.54 Y33.63 F3500.00
G1 X17.57 Y33.63 F3500.00
G1 X17.59 Y33.51 F3500.00
G1 X17.70 Y33.44 F3500.00
G1 X17.86 Y33.39 F3500.00
G1 X17.91 Y33.39 F3500.00
G1 X17.99 Y33.26 F3500.00
G1 X18.18 Y33.13 F3500.00
G1 X18.31 Y33.06 F3500.00
G1 X18.36 Y33.03 F3500.00
G1 X18.42 Y32.96 F3500.00
G1 X18.49 Y32.90 F3500.00
G1 X18.51 Y32.87 F3500.00
G1 X18.57 Y32.83 F3500.00
G1 X18.62 Y32.80 F3500.00
G1 X18.65 Y32.76 F3500.00
G1 X18.71 Y32.71 F3500.00
G1 X18.77 Y32.65 F3500.00
G1 X18.83 Y32.63 F3500.00
G1 X18.90 Y32.62 F3500.00
G1 X18.93 Y32.58 F3500.00
G1 X18.96 Y32.54 F3500.00
G1 X19.17 Y32.41 F3500.00
G1 X19.18 Y32.36 F3500.00
G1 X19.21 Y32.35 F3500.00
G1 X19.28 Y32.33 F3500.00
G1 X19.32 Y32.30 F3500.00
G1 X19.35 Y32.27 F3500.00
G1 X19.43 Y32.21 F3500.00
G1 X19.48 Y32.11 F3500.00
G1 X19.54 Y32.10 F3500.00
G1 X19.61 Y32.08 F3500.00
G1 X19.63 Y32.05 F3500.00
G1 X19.63 Y32.01 F3500.00
G1 X19.68 Y31.99 F3500.00
G1 X19.73 Y31.98 F3500.00
G1 X19.78 Y31.94 F3500.00
G1 X19.83 Y31.91 F3500.00
G1 X19.90 Y31.85 F3500.00
G1 X19.96 Y31.77 F3500.00
G1 X20.00 Y31.74 F3500.00
G1 X20.06 Y31.73 F3500.00
G1 X20.10 Y31.69 F3500.00
G1 X20.15 Y31.66 F3500.00
G1 X20.22 Y31.61 F3500.00
G1 X20.28 Y31.55 F3500.00
G1 X20.45 Y31.50 F3500.00
G1 X20.48 Y31.45 F3500.00
G1 X20.53 Y31.35 F3500.00
G1 X20.60 Y31.30 F3500.00
G1 X20.78 Y31.25 F3500.00
G1 X20.80 Y31.23 F3500.00
G1 X20.90 Y31.09 F3500.00
G1 X20.92 Y31.05 F3500.00
G1 X21.10 Y31.00 F3500.00
G1 X21.12 Y30.96 F3500.00
G1 X21.19 Y30.89 F3500.00
G1 X21.25 Y30.86 F3500.00
G1 X21.42 Y30.78 F3500.00
G1 X21.44 Y30.73 F3500.00
G1 X21.50 Y30.64 F3500.00
G1 X21.56 Y30.60 F3500.00
G1 X21.65 Y30.53 F3500.00
G1 X21.70 Y30.48 F3500.00
G1 X21.71 Y30.45 F3500.00
G1 X21.77 Y30.41 F3500.00
G1 X21.87 Y30.42 F3500.00
G1 X21.87 Y30.39 F3500.00
G1 X21.93 Y30.28 F3500.00
G1 X21.99 Y30.24 F3500.00
G1 X22.18 Y30.14 F3500.00
G1 X22.38 Y30.05 F3500.00
G1 X22.47 Y30.02 F3500.00
G1 X22.57 Y30.05 F3500.00
G1 X22.69 Y30.12 F3500.00
G1 X22.83 Y30.20 F3500.00
G1 X22.92 Y30.27 F3500.00
G1 X23.02 Y30.38 F3500.00
G1 X23.04 Y30.42 F3500.00
G1 X23.08 Y30.37 F3500.00
G1 X23.20 Y30.51 F3500.00
G1 X23.27 Y30.54 F3500.00
G1 X23.35 Y30.60 F3500.00
G1 X23.37 Y30.64 F3500.00
G1 X23.51 Y30.70 F3500.00
G1 X23.54 Y30.73 F3500.00
G1 X23.66 Y30.87 F3500.00
G1 X23.68 Y30.89 F3500.00
G1 X23.83 Y30.94 F3500.00
G1 X23.91 Y31.00 F3500.00
G1 X23.99 Y31.09 F3500.00
G1 X23.99 Y31.13 F3500.00
G1 X24.04 Y31.09 F3500.00
G1 X24.15 Y31.20 F3500.00
G1 X24.23 Y31.24 F3500.00
G1 X24.31 Y31.31 F3500.00
G1 X24.34 Y31.34 F3500.00
G1 X24.38 Y31.37 F3500.00
G1 X24.42 Y31.39 F3500.00
G1 X24.47 Y31.42 F3500.00
G1 X24.56 Y31.49 F3500.00
G1 X24.63 Y31.55 F3500.00
G1 X24.66 Y31.59 F3500.00
G1 X24.70 Y31.62 F3500.00
G1 X24.75 Y31.63 F3500.00
G1 X24.79 Y31.65 F3500.00
G1 X24.87 Y31.70 F3500.00
G1 X24.94 Y31.78 F3500.00
G1 X24.98 Y31.84 F3500.00
G1 X25.01 Y31.87 F3500.00
G1 X25.07 Y31.88 F3500.00
G1 X25.11 Y31.91 F3500.00
G1 X25.13 Y31.94 F3500.00
G1 X25.14 Y31.99 F3500.00
G1 X25.16 Y32.00 F3500.00
G1 X25.33 Y32.05 F3500.00
G1 X25.41 Y32.11 F3500.00
G1 X25.47 Y32.21 F3500.00
G1 X25.50 Y32.22 F3500.00
G1 X25.66 Y32.30 F3500.00
G1 X25.74 Y32.36 F3500.00
G1 X25.80 Y32.41 F3500.00
G1 X25.83 Y32.44 F3500.00
G1 X25.98 Y32.54 F3500.00
G1 X26.05 Y32.60 F3500.00
G1 X26.12 Y32.66 F3500.00
G1 X26.14 Y32.69 F3500.00
G1 X26.20 Y32.73 F3500.00
G1 X26.21 Y32.75 F3500.00
G1 X26.35 Y32.81 F3500.00
G1 X26.43 Y32.88 F3500.00
G1 X26.51 Y32.96 F3500.00
G1 X26.53 Y33.00 F3500.00
G1 X26.68 Y33.02 F3500.00
G1 X26.75 Y33.09 F3500.00
G1 X26.78 Y33.12 F3500.00
G1 X26.84 Y33.17 F3500.00
G1 X26.85 Y33.18 F3500.00
G1 X26.94 Y33.21 F3500.00
G1 X27.02 Y33.28 F3500.00
G1 X27.08 Y33.33 F3500.00
G1 X27.14 Y33.39 F3500.00
G1 X27.22 Y33.44 F3500.00
G1 X27.25 Y33.48 F3500.00
G1 X27.29 Y33.55 F3500.00
G1 X27.31 Y33.60 F3500.00
G1 X27.47 Y33.66 F3500.00
G1 X27.51 Y33.69 F3500.00
G1 X27.55 Y33.72 F3500.00
G1 X27.61 Y33.78 F3500.00
G1 X27.69 Y33.84 F3500.00
G1 X27.72 Y33.87 F3500.00
G1 X27.84 Y33.96 F3500.00
G1 X28.01 Y34.09 F3500.00
G1 X27.53 Y34.19 F3500.00
G1 X22.90 Y34.19 F3500.00
G1 X22.90 Y34.19 F3500.00
M300 S50.00 (pen up)
G4 P150 (wait 150ms)

(Polyline consisting of 30 segments.)
G1 X22.46 Y33.62 F3500.00
M300 S30.00 (pen down)
G4 P150 (wait 150ms)
G1 X26.38 Y33.59 F3500.00
G1 X26.35 Y33.52 F3500.00
G1 X26.30 Y33.50 F3500.00
G1 X26.26 Y33.48 F3500.00
G1 X26.18 Y33.42 F3500.00
G1 X26.13 Y33.37 F3500.00
G1 X26.09 Y33.33 F3500.00
G1 X26.04 Y33.30 F3500.00
G1 X25.98 Y33.29 F3500.00
G1 X25.94 Y33.27 F3500.00
G1 X25.91 Y33.23 F3500.00
G1 X25.86 Y33.19 F3500.00
G1 X25.81 Y33.16 F3500.00
G1 X25.80 Y33.12 F3500.00
G1 X25.77 Y33.09 F3500.00
G1 X25.72 Y33.05 F3500.00
G1 X25.67 Y33.04 F3500.00
G1 X25.61 Y33.03 F3500.00
G1 X25.53 Y32.96 F3500.00
G1 X25.48 Y32.90 F3500.00
G1 X25.46 Y32.88 F3500.00
G1 X25.39 Y32.82 F3500.00
G1 X25.34 Y32.79 F3500.00
G1 X25.30 Y32.77 F3500.00
G1 X25.29 Y32.73 F3500.00
G1 X25.27 Y32.70 F3500.00
G1 X25.20 Y32.68 F3500.00
G1 X25.14 Y32.66 F3500.00
G1 X25.08 Y32.61 F3500.00
G1 X25.02 Y32.53 F3500.00
G1 X24.99 Y32.48 F3500.00
G1 X24.94 Y32.45 F3500.00
G1 X24.88 Y32.44 F3500.00
G1 X24.82 Y32.42 F3500.00
G1 X24.76 Y32.36 F3500.00
G1 X24.70 Y32.30 F3500.00
G1 X24.66 Y32.27 F3500.00
G1 X24.63 Y32.23 F3500.00
G1 X24.56 Y32.22 F3500.00
G1 X24.50 Y32.19 F3500.00
G1 X24.41 Y32.09 F3500.00
G1 X24.31 Y32.01 F3500.00
G1 X24.26 Y31.98 F3500.00
G1 X24.23 Y31.94 F3500.00
G1 X24.19 Y31.93 F3500.00
G1 X24.11 Y31.91 F3500.00
G1 X24.05 Y31.85 F3500.00
G1 X23.99 Y31.78 F3500.00
G1 X23.94 Y31.73 F3500.00
G1 X23.91 Y31.69 F3500.00
G1 X23.87 Y31.68 F3500.00
G1 X23.80 Y31.67 F3500.00
G1 X23.74 Y31.61 F3500.00
G1 X23.67 Y31.55 F3500.00
G1 X23.59 Y31.50 F3500.00
G1 X23.51 Y31.43 F3500.00
G1 X23.48 Y31.38 F3500.00
G1 X23.45 Y31.33 F3500.00
G1 X23.44 Y31.31 F3500.00
G1 X23.32 Y31.31 F3500.00
G1 X23.27 Y31.27 F3500.00
G1 X23.21 Y31.22 F3500.00
G1 X23.13 Y31.15 F3500.00
G1 X23.07 Y31.08 F3500.00
G1 X22.99 Y31.02 F3500.00
G1 X22.87 Y30.95 F3500.00
G1 X22.71 Y30.86 F3500.00
G1 X22.63 Y30.80 F3500.00
G1 X22.57 Y30.75 F3500.00
G1 X22.40 Y30.70 F3500.00
G1 X22.33 Y30.72 F3500.00
G1 X22.28 Y30.82 F3500.00
G1 X22.20 Y30.87 F3500.00
G1 X21.97 Y30.97 F3500.00
G1 X21.94 Y31.00 F3500.00
G1 X21.87 Y31.08 F3500.00
G1 X21.81 Y31.15 F3500.00
G1 X21.64 Y31.21 F3500.00
G1 X21.62 Y31.24 F3500.00
G1 X21.53 Y31.34 F3500.00
G1 X21.43 Y31.43 F3500.00
G1 X21.31 Y31.46 F3500.00
G1 X21.31 Y31.47 F3500.00
G1 X21.27 Y31.52 F3500.00
G1 X21.24 Y31.55 F3500.00
G1 X21.18 Y31.61 F3500.00
G1 X21.12 Y31.67 F3500.00
G1 X21.05 Y31.69 F3500.00
G1 X20.98 Y31.70 F3500.00
G1 X20.97 Y31.73 F3500.00
G1 X20.96 Y31.78 F3500.00
G1 X20.86 Y31.81 F3500.00
G1 X20.86 Y31.83 F3500.00
G1 X20.83 Y31.87 F3500.00
G1 X20.79 Y31.91 F3500.00
G1 X20.71 Y31.96 F3500.00
G1 X20.64 Y32.02 F3500.00
G1 X20.59 Y32.04 F3500.00
G1 X20.53 Y32.06 F3500.00
G1 X20.51 Y32.09 F3500.00
G1 X20.47 Y32.14 F3500.00
G1 X20.37 Y32.23 F3500.00
G1 X20.25 Y32.31 F3500.00
G1 X20.21 Y32.33 F3500.00
G1 X20.15 Y32.34 F3500.00
G1 X20.10 Y32.37 F3500.00
G1 X20.06 Y32.41 F3500.00
G1 X19.99 Y32.46 F3500.00
G1 X19.93 Y32.54 F3500.00
G1 X19.88 Y32.58 F3500.00
G1 X19.84 Y32.59 F3500.00
G1 X19.78 Y32.62 F3500.00
G1 X19.73 Y32.66 F3500.00
G1 X19.67 Y32.72 F3500.00
G1 X19.62 Y32.77 F3500.00
G1 X19.54 Y32.79 F3500.00
G1 X19.48 Y32.79 F3500.00
G1 X19.48 Y32.87 F3500.00
G1 X19.45 Y32.91 F3500.00
G1 X19.41 Y32.94 F3500.00
G1 X19.35 Y32.95 F3500.00
G1 X19.32 Y32.98 F3500.00
G1 X19.29 Y33.02 F3500.00
G1 X19.21 Y33.07 F3500.00
G1 X19.13 Y33.13 F3500.00
G1 X19.09 Y33.15 F3500.00
G1 X19.03 Y33.18 F3500.00
G1 X19.00 Y33.23 F3500.00
G1 X18.96 Y33.26 F3500.00
G1 X18.89 Y33.33 F3500.00
G1 X18.81 Y33.37 F3500.00
G1 X18.66 Y33.42 F3500.00
G1 X18.65 Y33.44 F3500.00
G1 X18.53 Y33.59 F3500.00
G1 X22.46 Y33.62 F3500.00
G1 X22.46 Y33.62 F3500.00
M300 S50.00 (pen up)
G4 P150 (wait 150ms)

(Polyline consisting of 30 segments.)
G1 X35.04 Y32.98 F3500.00
M300 S30.00 (pen down)
G4 P150 (wait 150ms)
G1 X34.88 Y32.85 F3500.00
G1 X34.84 Y32.78 F3500.00
G1 X34.79 Y32.75 F3500.00
G1 X34.73 Y32.70 F3500.00
G1 X34.61 Y32.62 F3500.00
G1 X34.54 Y32.52 F3500.00
G1 X34.50 Y32.46 F3500.00
G1 X34.47 Y32.44 F3500.00
G1 X34.42 Y32.41 F3500.00
G1 X34.39 Y32.37 F3500.00
G1 X34.31 Y32.32 F3500.00
G1 X34.23 Y32.27 F3500.00
G1 X34.20 Y32.23 F3500.00
G1 X34.16 Y32.19 F3500.00
G1 X34.16 Y32.17 F3500.00
G1 X34.06 Y32.14 F3500.00
G1 X34.03 Y32.08 F3500.00
G1 X34.02 Y32.05 F3500.00
G1 X33.97 Y32.04 F3500.00
G1 X33.90 Y32.02 F3500.00
G1 X33.88 Y31.98 F3500.00
G1 X33.84 Y31.95 F3500.00
G1 X33.75 Y31.89 F3500.00
G1 X33.69 Y31.84 F3500.00
G1 X33.67 Y31.76 F3500.00
G1 X33.62 Y31.72 F3500.00
G1 X33.61 Y31.71 F3500.00
G1 X33.46 Y31.66 F3500.00
G1 X33.38 Y31.61 F3500.00
G1 X33.30 Y31.53 F3500.00
G1 X33.28 Y31.51 F3500.00
G1 X33.23 Y31.52 F3500.00
G1 X33.17 Y31.48 F3500.00
G1 X33.14 Y31.43 F3500.00
G1 X33.06 Y31.36 F3500.00
G1 X32.98 Y31.31 F3500.00
G1 X32.93 Y31.30 F3500.00
G1 X32.88 Y31.27 F3500.00
G1 X32.81 Y31.22 F3500.00
G1 X32.73 Y31.14 F3500.00
G1 X32.70 Y31.09 F3500.00
G1 X32.66 Y31.06 F3500.00
G1 X32.61 Y31.04 F3500.00
G1 X32.56 Y31.02 F3500.00
G1 X32.55 Y30.98 F3500.00
G1 X32.53 Y30.95 F3500.00
G1 X32.47 Y30.94 F3500.00
G1 X32.41 Y30.92 F3500.00
G1 X32.37 Y30.87 F3500.00
G1 X32.34 Y30.84 F3500.00
G1 X32.29 Y30.83 F3500.00
G1 X32.25 Y30.79 F3500.00
G1 X32.23 Y30.73 F3500.00
G1 X32.21 Y30.70 F3500.00
G1 X32.14 Y30.69 F3500.00
G1 X32.08 Y30.67 F3500.00
G1 X32.02 Y30.61 F3500.00
G1 X31.96 Y30.56 F3500.00
G1 X31.93 Y30.52 F3500.00
G1 X31.89 Y30.48 F3500.00
G1 X31.88 Y30.46 F3500.00
G1 X31.70 Y30.40 F3500.00
G1 X31.64 Y30.33 F3500.00
G1 X31.58 Y30.27 F3500.00
G1 X31.48 Y30.21 F3500.00
G1 X31.38 Y30.16 F3500.00
G1 X31.31 Y30.11 F3500.00
G1 X31.25 Y30.04 F3500.00
G1 X31.20 Y29.98 F3500.00
G1 X31.17 Y29.95 F3500.00
G1 X31.13 Y29.93 F3500.00
G1 X31.06 Y29.92 F3500.00
G1 X30.99 Y29.86 F3500.00
G1 X30.93 Y29.81 F3500.00
G1 X30.91 Y29.77 F3500.00
G1 X30.78 Y29.65 F3500.00
G1 X30.75 Y29.63 F3500.00
G1 X30.71 Y29.60 F3500.00
G1 X30.66 Y29.58 F3500.00
G1 X30.61 Y29.56 F3500.00
G1 X30.56 Y29.52 F3500.00
G1 X30.52 Y29.49 F3500.00
G1 X30.45 Y29.44 F3500.00
G1 X30.39 Y29.36 F3500.00
G1 X30.36 Y29.30 F3500.00
G1 X30.32 Y29.28 F3500.00
G1 X30.25 Y29.26 F3500.00
G1 X30.19 Y29.24 F3500.00
G1 X30.13 Y29.18 F3500.00
G1 X30.07 Y29.13 F3500.00
G1 X30.04 Y29.09 F3500.00
G1 X30.01 Y29.05 F3500.00
G1 X30.00 Y29.03 F3500.00
G1 X29.92 Y29.06 F3500.00
G1 X29.87 Y29.00 F3500.00
G1 X29.86 Y28.95 F3500.00
G1 X29.85 Y28.92 F3500.00
G1 X29.79 Y28.91 F3500.00
G1 X29.74 Y28.89 F3500.00
G1 X29.66 Y28.82 F3500.00
G1 X29.61 Y28.77 F3500.00
G1 X29.58 Y28.73 F3500.00
G1 X29.52 Y28.69 F3500.00
G1 X29.52 Y28.67 F3500.00
G1 X29.42 Y28.65 F3500.00
G1 X29.34 Y28.57 F3500.00
G1 X29.28 Y28.52 F3500.00
G1 X29.23 Y28.48 F3500.00
G1 X29.15 Y28.37 F3500.00
G1 X29.12 Y28.36 F3500.00
G1 X29.06 Y28.37 F3500.00
G1 X28.99 Y28.31 F3500.00
G1 X28.96 Y28.27 F3500.00
G1 X28.90 Y28.22 F3500.00
G1 X28.82 Y28.14 F3500.00
G1 X28.81 Y28.11 F3500.00
G1 X28.70 Y28.01 F3500.00
G1 X28.66 Y28.00 F3500.00
G1 X28.59 Y28.01 F3500.00
G1 X28.53 Y27.95 F3500.00
G1 X28.50 Y27.92 F3500.00
G1 X28.44 Y27.87 F3500.00
G1 X28.38 Y27.79 F3500.00
G1 X28.33 Y27.77 F3500.00
G1 X28.26 Y27.78 F3500.00
G1 X28.20 Y27.73 F3500.00
G1 X28.14 Y27.63 F3500.00
G1 X28.10 Y27.58 F3500.00
G1 X28.07 Y27.54 F3500.00
G1 X28.03 Y27.51 F3500.00
G1 X27.81 Y26.53 F3500.00
G1 X27.77 Y26.08 F3500.00
G1 X27.79 Y25.98 F3500.00
G1 X27.85 Y26.00 F3500.00
G1 X27.88 Y26.01 F3500.00
G1 X27.92 Y26.03 F3500.00
G1 X28.00 Y26.08 F3500.00
G1 X28.04 Y26.09 F3500.00
G1 X28.06 Y26.12 F3500.00
G1 X28.16 Y26.23 F3500.00
G1 X28.30 Y26.31 F3500.00
G1 X28.42 Y26.38 F3500.00
G1 X28.49 Y26.44 F3500.00
G1 X28.54 Y26.50 F3500.00
G1 X28.60 Y26.53 F3500.00
G1 X28.77 Y26.63 F3500.00
G1 X28.95 Y26.74 F3500.00
G1 X28.97 Y26.77 F3500.00
G1 X29.03 Y26.82 F3500.00
G1 X29.15 Y26.91 F3500.00
G1 X29.24 Y27.01 F3500.00
G1 X29.27 Y27.11 F3500.00
G1 X29.32 Y27.11 F3500.00
G1 X29.48 Y27.16 F3500.00
G1 X29.59 Y27.24 F3500.00
G1 X29.60 Y27.36 F3500.00
G1 X29.65 Y27.36 F3500.00
G1 X29.74 Y27.43 F3500.00
G1 X29.77 Y27.47 F3500.00
G1 X29.88 Y27.47 F3500.00
G1 X29.93 Y27.52 F3500.00
G1 X29.99 Y27.57 F3500.00
G1 X30.08 Y27.65 F3500.00
G1 X30.13 Y27.67 F3500.00
G1 X30.17 Y27.69 F3500.00
G1 X30.24 Y27.75 F3500.00
G1 X30.33 Y27.80 F3500.00
G1 X30.39 Y27.86 F3500.00
G1 X30.45 Y27.95 F3500.00
G1 X30.46 Y28.00 F3500.00
G1 X30.53 Y27.95 F3500.00
G1 X30.64 Y28.07 F3500.00
G1 X30.70 Y28.10 F3500.00
G1 X30.76 Y28.18 F3500.00
G1 X30.78 Y28.22 F3500.00
G1 X30.97 Y28.27 F3500.00
G1 X30.99 Y28.31 F3500.00
G1 X31.09 Y28.43 F3500.00
G1 X31.16 Y28.47 F3500.00
G1 X31.24 Y28.54 F3500.00
G1 X31.27 Y28.57 F3500.00
G1 X31.41 Y28.64 F3500.00
G1 X31.49 Y28.71 F3500.00
G1 X31.57 Y28.79 F3500.00
G1 X31.58 Y28.83 F3500.00
G1 X31.73 Y28.87 F3500.00
G1 X31.81 Y28.92 F3500.00
G1 X31.89 Y29.00 F3500.00
G1 X31.92 Y29.06 F3500.00
G1 X31.96 Y29.08 F3500.00
G1 X32.01 Y29.10 F3500.00
G1 X32.06 Y29.12 F3500.00
G1 X32.14 Y29.17 F3500.00
G1 X32.21 Y29.23 F3500.00
G1 X32.25 Y29.27 F3500.00
G1 X32.28 Y29.30 F3500.00
G1 X32.33 Y29.31 F3500.00
G1 X32.37 Y29.36 F3500.00
G1 X32.40 Y29.41 F3500.00
G1 X32.59 Y29.53 F3500.00
G1 X32.65 Y29.58 F3500.00
G1 X32.71 Y29.64 F3500.00
G1 X32.74 Y29.68 F3500.00
G1 X32.93 Y29.75 F3500.00
G1 X32.98 Y29.82 F3500.00
G1 X33.04 Y29.90 F3500.00
G1 X33.06 Y29.93 F3500.00
G1 X33.23 Y29.98 F3500.00
G1 X33.25 Y30.02 F3500.00
G1 X33.36 Y30.14 F3500.00
G1 X33.41 Y30.16 F3500.00
G1 X33.46 Y30.19 F3500.00
G1 X33.52 Y30.20 F3500.00
G1 X33.56 Y30.23 F3500.00
G1 X33.64 Y30.29 F3500.00
G1 X33.69 Y30.34 F3500.00
G1 X33.71 Y30.37 F3500.00
G1 X33.84 Y30.46 F3500.00
G1 X34.05 Y30.63 F3500.00
G1 X34.16 Y30.72 F3500.00
G1 X34.27 Y30.80 F3500.00
G1 X34.29 Y30.84 F3500.00
G1 X34.37 Y30.88 F3500.00
G1 X34.44 Y30.97 F3500.00
G1 X34.48 Y30.99 F3500.00
G1 X34.53 Y30.98 F3500.00
G1 X34.57 Y31.00 F3500.00
G1 X34.62 Y31.09 F3500.00
G1 X34.68 Y31.18 F3500.00
G1 X34.72 Y31.22 F3500.00
G1 X34.75 Y31.25 F3500.00
G1 X34.94 Y32.04 F3500.00
G1 X34.98 Y32.27 F3500.00
G1 X35.04 Y32.54 F3500.00
G1 X35.09 Y32.90 F3500.00
G1 X35.04 Y32.98 F3500.00
G1 X35.04 Y32.98 F3500.00
M300 S50.00 (pen up)
G4 P150 (wait 150ms)

(Polyline consisting of 30 segments.)
G1 X9.84 Y32.88 F3500.00
M300 S30.00 (pen down)
G4 P150 (wait 150ms)
G1 X9.92 Y32.36 F3500.00
G1 X9.99 Y32.06 F3500.00
G1 X10.06 Y31.82 F3500.00
G1 X10.24 Y31.22 F3500.00
G1 X10.26 Y31.19 F3500.00
G1 X10.29 Y31.09 F3500.00
G1 X10.32 Y31.06 F3500.00
G1 X10.37 Y31.00 F3500.00
G1 X10.45 Y30.94 F3500.00
G1 X10.50 Y30.92 F3500.00
G1 X10.55 Y30.91 F3500.00
G1 X10.60 Y30.87 F3500.00
G1 X10.63 Y30.84 F3500.00
G1 X10.64 Y30.80 F3500.00
G1 X10.70 Y30.77 F3500.00
G1 X10.74 Y30.73 F3500.00
G1 X10.78 Y30.70 F3500.00
G1 X10.93 Y30.64 F3500.00
G1 X10.98 Y30.63 F3500.00
G1 X10.95 Y30.58 F3500.00
G1 X11.02 Y30.54 F3500.00
G1 X11.11 Y30.49 F3500.00
G1 X11.20 Y30.37 F3500.00
G1 X11.24 Y30.41 F3500.00
G1 X11.27 Y30.45 F3500.00
G1 X11.26 Y30.34 F3500.00
G1 X11.28 Y30.30 F3500.00
G1 X11.39 Y30.28 F3500.00
G1 X11.42 Y30.25 F3500.00
G1 X11.59 Y30.18 F3500.00
G1 X11.63 Y30.16 F3500.00
G1 X11.67 Y30.02 F3500.00
G1 X11.73 Y30.06 F3500.00
G1 X11.74 Y30.03 F3500.00
G1 X11.82 Y29.92 F3500.00
G1 X11.88 Y29.88 F3500.00
G1 X11.93 Y29.82 F3500.00
G1 X12.05 Y29.82 F3500.00
G1 X12.06 Y29.77 F3500.00
G1 X12.14 Y29.67 F3500.00
G1 X12.20 Y29.62 F3500.00
G1 X12.26 Y29.58 F3500.00
G1 X12.34 Y29.51 F3500.00
G1 X12.38 Y29.49 F3500.00
G1 X12.44 Y29.48 F3500.00
G1 X12.50 Y29.45 F3500.00
G1 X12.53 Y29.43 F3500.00
G1 X12.59 Y29.32 F3500.00
G1 X12.66 Y29.26 F3500.00
G1 X12.71 Y29.24 F3500.00
G1 X12.76 Y29.23 F3500.00
G1 X12.82 Y29.20 F3500.00
G1 X12.84 Y29.16 F3500.00
G1 X12.90 Y29.11 F3500.00
G1 X12.98 Y29.04 F3500.00
G1 X13.07 Y29.01 F3500.00
G1 X13.07 Y29.00 F3500.00
G1 X13.10 Y28.95 F3500.00
G1 X13.11 Y28.91 F3500.00
G1 X13.17 Y28.88 F3500.00
G1 X13.24 Y28.87 F3500.00
G1 X13.28 Y28.85 F3500.00
G1 X13.30 Y28.80 F3500.00
G1 X13.35 Y28.78 F3500.00
G1 X13.40 Y28.77 F3500.00
G1 X13.42 Y28.73 F3500.00
G1 X13.43 Y28.68 F3500.00
G1 X13.48 Y28.63 F3500.00
G1 X13.55 Y28.65 F3500.00
G1 X13.56 Y28.63 F3500.00
G1 X13.59 Y28.59 F3500.00
G1 X13.63 Y28.55 F3500.00
G1 X13.69 Y28.50 F3500.00
G1 X13.75 Y28.44 F3500.00
G1 X13.81 Y28.42 F3500.00
G1 X13.88 Y28.40 F3500.00
G1 X13.91 Y28.38 F3500.00
G1 X13.95 Y28.33 F3500.00
G1 X14.01 Y28.25 F3500.00
G1 X14.07 Y28.20 F3500.00
G1 X14.25 Y28.15 F3500.00
G1 X14.27 Y28.11 F3500.00
G1 X14.34 Y28.03 F3500.00
G1 X14.40 Y27.95 F3500.00
G1 X14.44 Y27.91 F3500.00
G1 X14.56 Y27.89 F3500.00
G1 X14.59 Y27.86 F3500.00
G1 X14.67 Y27.79 F3500.00
G1 X14.73 Y27.73 F3500.00
G1 X14.77 Y27.69 F3500.00
G1 X14.89 Y27.68 F3500.00
G1 X14.92 Y27.62 F3500.00
G1 X15.00 Y27.55 F3500.00
G1 X15.04 Y27.48 F3500.00
G1 X15.10 Y27.43 F3500.00
G1 X15.19 Y27.38 F3500.00
G1 X15.35 Y27.33 F3500.00
G1 X15.40 Y27.29 F3500.00
G1 X15.36 Y27.23 F3500.00
G1 X15.43 Y27.19 F3500.00
G1 X15.52 Y27.13 F3500.00
G1 X15.67 Y27.07 F3500.00
G1 X15.70 Y27.07 F3500.00
G1 X15.69 Y26.98 F3500.00
G1 X15.81 Y26.90 F3500.00
G1 X15.93 Y26.81 F3500.00
G1 X15.96 Y26.76 F3500.00
G1 X16.02 Y26.75 F3500.00
G1 X16.09 Y26.75 F3500.00
G1 X16.27 Y26.56 F3500.00
G1 X16.28 Y26.53 F3500.00
G1 X16.36 Y26.47 F3500.00
G1 X16.43 Y26.41 F3500.00
G1 X16.49 Y26.39 F3500.00
G1 X16.54 Y26.39 F3500.00
G1 X16.64 Y26.27 F3500.00
G1 X16.73 Y26.18 F3500.00
G1 X16.86 Y26.09 F3500.00
G1 X16.90 Y26.07 F3500.00
G1 X16.98 Y26.01 F3500.00
G1 X17.08 Y25.92 F3500.00
G1 X17.16 Y25.94 F3500.00
G1 X17.16 Y26.02 F3500.00
G1 X17.11 Y26.48 F3500.00
G1 X17.04 Y27.20 F3500.00
G1 X17.00 Y27.47 F3500.00
G1 X16.95 Y27.49 F3500.00
G1 X16.90 Y27.54 F3500.00
G1 X16.83 Y27.58 F3500.00
G1 X16.78 Y27.63 F3500.00
G1 X16.74 Y27.72 F3500.00
G1 X16.70 Y27.78 F3500.00
G1 X16.64 Y27.80 F3500.00
G1 X16.57 Y27.81 F3500.00
G1 X16.54 Y27.84 F3500.00
G1 X16.50 Y27.88 F3500.00
G1 X16.44 Y27.94 F3500.00
G1 X16.37 Y28.02 F3500.00
G1 X16.32 Y28.05 F3500.00
G1 X16.25 Y28.06 F3500.00
G1 X16.21 Y28.10 F3500.00
G1 X16.19 Y28.13 F3500.00
G1 X16.12 Y28.18 F3500.00
G1 X16.06 Y28.25 F3500.00
G1 X16.00 Y28.26 F3500.00
G1 X15.93 Y28.27 F3500.00
G1 X15.89 Y28.31 F3500.00
G1 X15.86 Y28.36 F3500.00
G1 X15.80 Y28.43 F3500.00
G1 X15.74 Y28.49 F3500.00
G1 X15.67 Y28.51 F3500.00
G1 X15.61 Y28.53 F3500.00
G1 X15.58 Y28.55 F3500.00
G1 X15.53 Y28.58 F3500.00
G1 X15.44 Y28.70 F3500.00
G1 X15.42 Y28.74 F3500.00
G1 X15.36 Y28.77 F3500.00
G1 X15.30 Y28.77 F3500.00
G1 X15.22 Y28.83 F3500.00
G1 X15.16 Y28.88 F3500.00
G1 X14.99 Y28.93 F3500.00
G1 X14.97 Y28.98 F3500.00
G1 X14.92 Y29.07 F3500.00
G1 X14.85 Y29.14 F3500.00
G1 X14.76 Y29.15 F3500.00
G1 X14.67 Y29.20 F3500.00
G1 X14.61 Y29.25 F3500.00
G1 X14.55 Y29.29 F3500.00
G1 X14.42 Y29.41 F3500.00
G1 X14.40 Y29.45 F3500.00
G1 X14.36 Y29.50 F3500.00
G1 X14.25 Y29.50 F3500.00
G1 X14.23 Y29.53 F3500.00
G1 X14.15 Y29.61 F3500.00
G1 X14.07 Y29.66 F3500.00
G1 X13.96 Y29.77 F3500.00
G1 X13.95 Y29.81 F3500.00
G1 X13.90 Y29.83 F3500.00
G1 X13.85 Y29.84 F3500.00
G1 X13.80 Y29.88 F3500.00
G1 X13.75 Y29.91 F3500.00
G1 X13.69 Y29.97 F3500.00
G1 X13.63 Y30.04 F3500.00
G1 X13.54 Y30.06 F3500.00
G1 X13.53 Y30.08 F3500.00
G1 X13.49 Y30.12 F3500.00
G1 X13.48 Y30.17 F3500.00
G1 X13.44 Y30.19 F3500.00
G1 X13.37 Y30.20 F3500.00
G1 X13.34 Y30.23 F3500.00
G1 X13.31 Y30.27 F3500.00
G1 X13.26 Y30.29 F3500.00
G1 X13.21 Y30.31 F3500.00
G1 X13.17 Y30.34 F3500.00
G1 X13.15 Y30.36 F3500.00
G1 X13.20 Y30.42 F3500.00
G1 X13.06 Y30.42 F3500.00
G1 X13.06 Y30.44 F3500.00
G1 X13.01 Y30.49 F3500.00
G1 X12.98 Y30.52 F3500.00
G1 X12.91 Y30.57 F3500.00
G1 X12.84 Y30.64 F3500.00
G1 X12.80 Y30.65 F3500.00
G1 X12.73 Y30.66 F3500.00
G1 X12.70 Y30.70 F3500.00
G1 X12.67 Y30.75 F3500.00
G1 X12.59 Y30.83 F3500.00
G1 X12.53 Y30.88 F3500.00
G1 X12.50 Y30.91 F3500.00
G1 X12.45 Y30.95 F3500.00
G1 X12.40 Y30.97 F3500.00
G1 X12.35 Y30.99 F3500.00
G1 X12.31 Y31.01 F3500.00
G1 X12.27 Y31.04 F3500.00
G1 X12.16 Y31.16 F3500.00
G1 X12.12 Y31.20 F3500.00
G1 X12.08 Y31.22 F3500.00
G1 X12.02 Y31.24 F3500.00
G1 X12.01 Y31.27 F3500.00
G1 X11.99 Y31.30 F3500.00
G1 X11.90 Y31.36 F3500.00
G1 X11.80 Y31.43 F3500.00
G1 X11.71 Y31.46 F3500.00
G1 X11.71 Y31.47 F3500.00
G1 X11.69 Y31.52 F3500.00
G1 X11.67 Y31.55 F3500.00
G1 X11.58 Y31.61 F3500.00
G1 X11.49 Y31.66 F3500.00
G1 X11.42 Y31.71 F3500.00
G1 X11.36 Y31.79 F3500.00
G1 X11.23 Y31.81 F3500.00
G1 X11.23 Y31.83 F3500.00
G1 X11.19 Y31.87 F3500.00
G1 X11.16 Y31.91 F3500.00
G1 X11.10 Y31.97 F3500.00
G1 X11.04 Y32.01 F3500.00
G1 X10.89 Y32.09 F3500.00
G1 X10.84 Y32.13 F3500.00
G1 X10.78 Y32.21 F3500.00
G1 X10.71 Y32.27 F3500.00
G1 X10.57 Y32.34 F3500.00
G1 X10.52 Y32.38 F3500.00
G1 X10.45 Y32.43 F3500.00
G1 X10.39 Y32.49 F3500.00
G1 X10.31 Y32.58 F3500.00
G1 X10.23 Y32.62 F3500.00
G1 X10.18 Y32.67 F3500.00
G1 X9.97 Y32.84 F3500.00
G1 X9.84 Y32.88 F3500.00
G1 X9.84 Y32.88 F3500.00
M300 S50.00 (pen up)
G4 P150 (wait 150ms)

(Polyline consisting of 30 segments.)
G1 X34.34 Y31.84 F3500.00
M300 S30.00 (pen down)
G4 P150 (wait 150ms)
G1 X34.30 Y31.50 F3500.00
G1 X34.26 Y31.43 F3500.00
G1 X34.20 Y31.34 F3500.00
G1 X34.13 Y31.27 F3500.00
G1 X34.06 Y31.25 F3500.00
G1 X34.02 Y31.24 F3500.00
G1 X33.98 Y31.19 F3500.00
G1 X33.91 Y31.10 F3500.00
G1 X33.86 Y31.04 F3500.00
G1 X33.76 Y31.01 F3500.00
G1 X33.64 Y30.93 F3500.00
G1 X33.59 Y30.87 F3500.00
G1 X33.51 Y30.82 F3500.00
G1 X33.41 Y30.73 F3500.00
G1 X33.35 Y30.68 F3500.00
G1 X33.28 Y30.60 F3500.00
G1 X33.26 Y30.57 F3500.00
G1 X33.14 Y30.57 F3500.00
G1 X33.09 Y30.52 F3500.00
G1 X33.03 Y30.47 F3500.00
G1 X32.94 Y30.39 F3500.00
G1 X32.92 Y30.34 F3500.00
G1 X32.88 Y30.31 F3500.00
G1 X32.81 Y30.29 F3500.00
G1 X32.77 Y30.27 F3500.00
G1 X32.71 Y30.22 F3500.00
G1 X32.63 Y30.16 F3500.00
G1 X32.60 Y30.12 F3500.00
G1 X32.56 Y30.08 F3500.00
G1 X32.55 Y30.06 F3500.00
G1 X32.42 Y30.05 F3500.00
G1 X32.46 Y30.02 F3500.00
G1 X32.40 Y29.97 F3500.00
G1 X32.31 Y29.91 F3500.00
G1 X32.28 Y29.88 F3500.00
G1 X32.25 Y29.84 F3500.00
G1 X32.18 Y29.83 F3500.00
G1 X32.13 Y29.81 F3500.00
G1 X32.12 Y29.77 F3500.00
G1 X32.08 Y29.72 F3500.00
G1 X32.03 Y29.69 F3500.00
G1 X31.98 Y29.67 F3500.00
G1 X31.92 Y29.61 F3500.00
G1 X31.86 Y29.55 F3500.00
G1 X31.81 Y29.52 F3500.00
G1 X31.76 Y29.49 F3500.00
G1 X31.72 Y29.47 F3500.00
G1 X31.66 Y29.45 F3500.00
G1 X31.66 Y29.41 F3500.00
G1 X31.55 Y29.30 F3500.00
G1 X31.50 Y29.27 F3500.00
G1 X31.45 Y29.22 F3500.00
G1 X31.43 Y29.22 F3500.00
G1 X31.28 Y29.16 F3500.00
G1 X31.21 Y29.11 F3500.00
G1 X31.14 Y29.04 F3500.00
G1 X31.10 Y28.99 F3500.00
G1 X31.06 Y28.95 F3500.00
G1 X31.01 Y28.94 F3500.00
G1 X30.96 Y28.92 F3500.00
G1 X30.89 Y28.86 F3500.00
G1 X30.81 Y28.80 F3500.00
G1 X30.77 Y28.77 F3500.00
G1 X30.74 Y28.74 F3500.00
G1 X30.69 Y28.72 F3500.00
G1 X30.65 Y28.69 F3500.00
G1 X30.63 Y28.63 F3500.00
G1 X30.61 Y28.60 F3500.00
G1 X30.54 Y28.58 F3500.00
G1 X30.48 Y28.56 F3500.00
G1 X30.42 Y28.50 F3500.00
G1 X30.36 Y28.45 F3500.00
G1 X30.33 Y28.41 F3500.00
G1 X30.29 Y28.37 F3500.00
G1 X30.29 Y28.35 F3500.00
G1 X30.16 Y28.33 F3500.00
G1 X30.09 Y28.25 F3500.00
G1 X30.03 Y28.20 F3500.00
G1 X29.96 Y28.15 F3500.00
G1 X29.88 Y28.07 F3500.00
G1 X29.87 Y28.03 F3500.00
G1 X29.72 Y27.96 F3500.00
G1 X29.64 Y27.89 F3500.00
G1 X29.56 Y27.84 F3500.00
G1 X29.49 Y27.80 F3500.00
G1 X29.43 Y27.73 F3500.00
G1 X29.40 Y27.70 F3500.00
G1 X29.36 Y27.65 F3500.00
G1 X29.36 Y27.64 F3500.00
G1 X29.28 Y27.66 F3500.00
G1 X29.23 Y27.61 F3500.00
G1 X29.22 Y27.56 F3500.00
G1 X29.20 Y27.52 F3500.00
G1 X29.15 Y27.51 F3500.00
G1 X29.11 Y27.50 F3500.00
G1 X29.03 Y27.43 F3500.00
G1 X28.97 Y27.37 F3500.00
G1 X28.94 Y27.35 F3500.00
G1 X28.82 Y27.28 F3500.00
G1 X28.72 Y27.21 F3500.00
G1 X28.69 Y27.16 F3500.00
G1 X28.67 Y27.13 F3500.00
G1 X28.47 Y26.98 F3500.00
G1 X28.47 Y26.91 F3500.00
G1 X28.45 Y26.95 F3500.00
G1 X28.41 Y26.98 F3500.00
G1 X28.40 Y27.15 F3500.00
G1 X28.44 Y27.26 F3500.00
G1 X28.48 Y27.32 F3500.00
G1 X28.53 Y27.40 F3500.00
G1 X28.55 Y27.43 F3500.00
G1 X28.73 Y27.49 F3500.00
G1 X28.79 Y27.54 F3500.00
G1 X28.85 Y27.62 F3500.00
G1 X28.92 Y27.68 F3500.00
G1 X29.01 Y27.73 F3500.00
G1 X29.10 Y27.79 F3500.00
G1 X29.18 Y27.84 F3500.00
G1 X29.25 Y27.89 F3500.00
G1 X29.33 Y27.99 F3500.00
G1 X29.34 Y28.04 F3500.00
G1 X29.49 Y28.10 F3500.00
G1 X29.57 Y28.15 F3500.00
G1 X29.65 Y28.20 F3500.00
G1 X29.69 Y28.24 F3500.00
G1 X29.72 Y28.26 F3500.00
G1 X29.77 Y28.28 F3500.00
G1 X29.81 Y28.32 F3500.00
G1 X29.89 Y28.40 F3500.00
G1 X29.97 Y28.45 F3500.00
G1 X30.01 Y28.48 F3500.00
G1 X30.04 Y28.52 F3500.00
G1 X30.09 Y28.53 F3500.00
G1 X30.14 Y28.55 F3500.00
G1 X30.15 Y28.59 F3500.00
G1 X30.17 Y28.63 F3500.00
G1 X30.17 Y28.65 F3500.00
G1 X30.30 Y28.68 F3500.00
G1 X30.36 Y28.75 F3500.00
G1 X30.42 Y28.81 F3500.00
G1 X30.46 Y28.85 F3500.00
G1 X30.49 Y28.87 F3500.00
G1 X30.55 Y28.88 F3500.00
G1 X30.61 Y28.91 F3500.00
G1 X30.69 Y28.96 F3500.00
G1 X30.75 Y29.04 F3500.00
G1 X30.83 Y29.11 F3500.00
G1 X30.91 Y29.16 F3500.00
G1 X30.99 Y29.21 F3500.00
G1 X31.06 Y29.27 F3500.00
G1 X31.14 Y29.32 F3500.00
G1 X31.22 Y29.41 F3500.00
G1 X31.28 Y29.47 F3500.00
G1 X31.34 Y29.53 F3500.00
G1 X31.36 Y29.58 F3500.00
G1 X31.54 Y29.63 F3500.00
G1 X31.61 Y29.67 F3500.00
G1 X31.67 Y29.75 F3500.00
G1 X31.77 Y29.82 F3500.00
G1 X31.87 Y29.88 F3500.00
G1 X31.93 Y29.93 F3500.00
G1 X31.99 Y29.98 F3500.00
G1 X32.03 Y30.02 F3500.00
G1 X32.06 Y30.06 F3500.00
G1 X32.12 Y30.10 F3500.00
G1 X32.18 Y30.12 F3500.00
G1 X32.25 Y30.18 F3500.00
G1 X32.31 Y30.23 F3500.00
G1 X32.34 Y30.27 F3500.00
G1 X32.38 Y30.30 F3500.00
G1 X32.44 Y30.31 F3500.00
G1 X32.50 Y30.34 F3500.00
G1 X32.52 Y30.37 F3500.00
G1 X32.63 Y30.49 F3500.00
G1 X32.66 Y30.52 F3500.00
G1 X32.70 Y30.55 F3500.00
G1 X32.77 Y30.57 F3500.00
G1 X32.83 Y30.58 F3500.00
G1 X32.84 Y30.63 F3500.00
G1 X32.85 Y30.66 F3500.00
G1 X32.86 Y30.68 F3500.00
G1 X33.01 Y30.75 F3500.00
G1 X33.09 Y30.81 F3500.00
G1 X33.16 Y30.90 F3500.00
G1 X33.18 Y30.94 F3500.00
G1 X33.33 Y30.98 F3500.00
G1 X33.41 Y31.03 F3500.00
G1 X33.49 Y31.13 F3500.00
G1 X33.51 Y31.18 F3500.00
G1 X33.75 Y31.27 F3500.00
G1 X33.78 Y31.31 F3500.00
G1 X33.82 Y31.33 F3500.00
G1 X33.87 Y31.35 F3500.00
G1 X33.91 Y31.37 F3500.00
G1 X33.94 Y31.41 F3500.00
G1 X33.99 Y31.45 F3500.00
G1 X34.04 Y31.48 F3500.00
G1 X34.07 Y31.51 F3500.00
G1 X34.13 Y31.57 F3500.00
G1 X34.20 Y31.64 F3500.00
G1 X34.22 Y31.68 F3500.00
G1 X34.33 Y31.69 F3500.00
G1 X34.35 Y31.73 F3500.00
G1 X34.34 Y31.84 F3500.00
G1 X34.34 Y31.84 F3500.00
M300 S50.00 (pen up)
G4 P150 (wait 150ms)

(Polyline consisting of 30 segments.)
G1 X10.65 Y31.68 F3500.00
M300 S30.00 (pen down)
G4 P150 (wait 150ms)
G1 X10.74 Y31.63 F3500.00
G1 X10.82 Y31.56 F3500.00
G1 X10.88 Y31.53 F3500.00
G1 X10.99 Y31.41 F3500.00
G1 X11.07 Y31.47 F3500.00
G1 X11.08 Y31.44 F3500.00
G1 X11.13 Y31.31 F3500.00
G1 X11.19 Y31.26 F3500.00
G1 X11.37 Y31.21 F3500.00
G1 X11.40 Y31.16 F3500.00
G1 X11.46 Y31.08 F3500.00
G1 X11.52 Y31.03 F3500.00
G1 X11.59 Y30.96 F3500.00
G1 X11.67 Y30.91 F3500.00
G1 X11.83 Y30.87 F3500.00
G1 X11.89 Y30.91 F3500.00
G1 X11.86 Y30.86 F3500.00
G1 X11.92 Y30.72 F3500.00
G1 X11.99 Y30.66 F3500.00
G1 X12.06 Y30.60 F3500.00
G1 X12.12 Y30.55 F3500.00
G1 X12.18 Y30.52 F3500.00
G1 X12.24 Y30.51 F3500.00
G1 X12.28 Y30.49 F3500.00
G1 X12.31 Y30.43 F3500.00
G1 X12.38 Y30.35 F3500.00
G1 X12.44 Y30.29 F3500.00
G1 X12.50 Y30.27 F3500.00
G1 X12.57 Y30.27 F3500.00
G1 X12.61 Y30.23 F3500.00
G1 X12.63 Y30.19 F3500.00
G1 X12.69 Y30.14 F3500.00
G1 X12.76 Y30.07 F3500.00
G1 X12.88 Y30.04 F3500.00
G1 X12.89 Y30.03 F3500.00
G1 X12.91 Y29.98 F3500.00
G1 X12.91 Y29.94 F3500.00
G1 X12.97 Y29.92 F3500.00
G1 X13.01 Y29.90 F3500.00
G1 X13.05 Y29.88 F3500.00
G1 X13.08 Y29.84 F3500.00
G1 X13.16 Y29.78 F3500.00
G1 X13.24 Y29.71 F3500.00
G1 X13.28 Y29.67 F3500.00
G1 X13.34 Y29.66 F3500.00
G1 X13.37 Y29.63 F3500.00
G1 X13.40 Y29.59 F3500.00
G1 X13.48 Y29.53 F3500.00
G1 X13.56 Y29.48 F3500.00
G1 X13.59 Y29.45 F3500.00
G1 X13.64 Y29.38 F3500.00
G1 X13.69 Y29.39 F3500.00
G1 X13.73 Y29.38 F3500.00
G1 X13.80 Y29.28 F3500.00
G1 X13.88 Y29.23 F3500.00
G1 X13.91 Y29.20 F3500.00
G1 X13.96 Y29.15 F3500.00
G1 X14.02 Y29.16 F3500.00
G1 X14.05 Y29.15 F3500.00
G1 X14.12 Y29.07 F3500.00
G1 X14.20 Y29.00 F3500.00
G1 X14.24 Y28.95 F3500.00
G1 X14.28 Y28.91 F3500.00
G1 X14.33 Y28.92 F3500.00
G1 X14.37 Y28.91 F3500.00
G1 X14.40 Y28.85 F3500.00
G1 X14.44 Y28.80 F3500.00
G1 X14.51 Y28.83 F3500.00
G1 X14.54 Y28.82 F3500.00
G1 X14.56 Y28.73 F3500.00
G1 X14.62 Y28.68 F3500.00
G1 X14.64 Y28.63 F3500.00
G1 X14.70 Y28.58 F3500.00
G1 X14.77 Y28.59 F3500.00
G1 X14.82 Y28.58 F3500.00
G1 X14.87 Y28.50 F3500.00
G1 X14.93 Y28.45 F3500.00
G1 X15.11 Y28.40 F3500.00
G1 X15.14 Y28.33 F3500.00
G1 X15.20 Y28.25 F3500.00
G1 X15.26 Y28.21 F3500.00
G1 X15.40 Y28.13 F3500.00
G1 X15.45 Y28.09 F3500.00
G1 X15.52 Y28.04 F3500.00
G1 X15.58 Y27.98 F3500.00
G1 X15.64 Y27.89 F3500.00
G1 X15.75 Y27.89 F3500.00
G1 X15.78 Y27.86 F3500.00
G1 X15.84 Y27.80 F3500.00
G1 X15.89 Y27.75 F3500.00
G1 X16.07 Y27.68 F3500.00
G1 X16.10 Y27.62 F3500.00
G1 X16.16 Y27.54 F3500.00
G1 X16.22 Y27.50 F3500.00
G1 X16.30 Y27.43 F3500.00
G1 X16.37 Y27.37 F3500.00
G1 X16.41 Y27.32 F3500.00
G1 X16.46 Y27.25 F3500.00
G1 X16.49 Y27.21 F3500.00
G1 X16.55 Y27.04 F3500.00
G1 X16.48 Y27.00 F3500.00
G1 X16.42 Y27.05 F3500.00
G1 X16.34 Y27.12 F3500.00
G1 X16.25 Y27.17 F3500.00
G1 X16.11 Y27.22 F3500.00
G1 X16.09 Y27.28 F3500.00
G1 X16.00 Y27.36 F3500.00
G1 X15.94 Y27.40 F3500.00
G1 X15.87 Y27.47 F3500.00
G1 X15.81 Y27.52 F3500.00
G1 X15.72 Y27.58 F3500.00
G1 X15.64 Y27.65 F3500.00
G1 X15.59 Y27.69 F3500.00
G1 X15.54 Y27.71 F3500.00
G1 X15.52 Y27.73 F3500.00
G1 X15.48 Y27.77 F3500.00
G1 X15.40 Y27.83 F3500.00
G1 X15.32 Y27.88 F3500.00
G1 X15.28 Y27.90 F3500.00
G1 X15.22 Y27.92 F3500.00
G1 X15.21 Y27.95 F3500.00
G1 X15.19 Y28.01 F3500.00
G1 X15.15 Y28.04 F3500.00
G1 X15.10 Y28.06 F3500.00
G1 X15.05 Y28.10 F3500.00
G1 X15.00 Y28.13 F3500.00
G1 X14.94 Y28.18 F3500.00
G1 X14.88 Y28.25 F3500.00
G1 X14.83 Y28.26 F3500.00
G1 X14.77 Y28.27 F3500.00
G1 X14.73 Y28.31 F3500.00
G1 X14.68 Y28.36 F3500.00
G1 X14.62 Y28.43 F3500.00
G1 X14.55 Y28.48 F3500.00
G1 X14.38 Y28.54 F3500.00
G1 X14.35 Y28.56 F3500.00
G1 X14.25 Y28.70 F3500.00
G1 X14.23 Y28.73 F3500.00
G1 X14.05 Y28.78 F3500.00
G1 X14.03 Y28.82 F3500.00
G1 X13.97 Y28.90 F3500.00
G1 X13.91 Y28.94 F3500.00
G1 X13.79 Y29.06 F3500.00
G1 X13.73 Y29.01 F3500.00
G1 X13.72 Y29.06 F3500.00
G1 X13.65 Y29.15 F3500.00
G1 X13.59 Y29.19 F3500.00
G1 X13.51 Y29.26 F3500.00
G1 X13.43 Y29.30 F3500.00
G1 X13.33 Y29.41 F3500.00
G1 X13.28 Y29.37 F3500.00
G1 X13.27 Y29.40 F3500.00
G1 X13.19 Y29.51 F3500.00
G1 X13.12 Y29.56 F3500.00
G1 X12.97 Y29.60 F3500.00
G1 X12.94 Y29.63 F3500.00
G1 X12.83 Y29.77 F3500.00
G1 X12.79 Y29.81 F3500.00
G1 X12.73 Y29.86 F3500.00
G1 X12.67 Y29.92 F3500.00
G1 X12.62 Y29.94 F3500.00
G1 X12.57 Y29.95 F3500.00
G1 X12.53 Y29.98 F3500.00
G1 X12.47 Y30.04 F3500.00
G1 X12.41 Y30.11 F3500.00
G1 X12.35 Y30.17 F3500.00
G1 X12.31 Y30.19 F3500.00
G1 X12.25 Y30.20 F3500.00
G1 X12.20 Y30.23 F3500.00
G1 X12.16 Y30.27 F3500.00
G1 X12.09 Y30.33 F3500.00
G1 X12.03 Y30.40 F3500.00
G1 X11.94 Y30.42 F3500.00
G1 X11.94 Y30.44 F3500.00
G1 X11.89 Y30.49 F3500.00
G1 X11.88 Y30.52 F3500.00
G1 X11.84 Y30.55 F3500.00
G1 X11.78 Y30.56 F3500.00
G1 X11.74 Y30.59 F3500.00
G1 X11.71 Y30.63 F3500.00
G1 X11.62 Y30.69 F3500.00
G1 X11.56 Y30.72 F3500.00
G1 X11.59 Y30.77 F3500.00
G1 X11.46 Y30.78 F3500.00
G1 X11.45 Y30.79 F3500.00
G1 X11.41 Y30.84 F3500.00
G1 X11.39 Y30.87 F3500.00
G1 X11.31 Y30.94 F3500.00
G1 X11.23 Y30.99 F3500.00
G1 X11.19 Y31.01 F3500.00
G1 X11.13 Y31.02 F3500.00
G1 X11.10 Y31.05 F3500.00
G1 X11.07 Y31.10 F3500.00
G1 X10.99 Y31.18 F3500.00
G1 X10.90 Y31.24 F3500.00
G1 X10.76 Y31.28 F3500.00
G1 X10.74 Y31.32 F3500.00
G1 X10.67 Y31.40 F3500.00
G1 X10.59 Y31.49 F3500.00
G1 X10.56 Y31.62 F3500.00
G1 X10.65 Y31.68 F3500.00
G1 X10.65 Y31.68 F3500.00
M300 S50.00 (pen up)
G4 P150 (wait 150ms)

(Polyline consisting of 30 segments.)
G1 X10.37 Y29.98 F3500.00
M300 S30.00 (pen down)
G4 P150 (wait 150ms)
G1 X10.39 Y29.89 F3500.00
G1 X10.41 Y29.79 F3500.00
G1 X10.43 Y29.68 F3500.00
G1 X10.65 Y28.47 F3500.00
G1 X10.70 Y28.35 F3500.00
G1 X10.73 Y28.34 F3500.00
G1 X10.78 Y28.37 F3500.00
G1 X10.76 Y28.29 F3500.00
G1 X10.76 Y28.24 F3500.00
G1 X10.77 Y28.19 F3500.00
G1 X10.82 Y28.18 F3500.00
G1 X10.87 Y28.16 F3500.00
G1 X10.93 Y28.13 F3500.00
G1 X10.96 Y28.10 F3500.00
G1 X10.98 Y28.04 F3500.00
G1 X11.09 Y28.04 F3500.00
G1 X11.11 Y27.99 F3500.00
G1 X11.26 Y27.89 F3500.00
G1 X11.28 Y27.89 F3500.00
G1 X11.28 Y27.80 F3500.00
G1 X11.40 Y27.73 F3500.00
G1 X11.50 Y27.66 F3500.00
G1 X11.53 Y27.61 F3500.00
G1 X11.72 Y27.54 F3500.00
G1 X11.73 Y27.51 F3500.00
G1 X11.94 Y27.38 F3500.00
G1 X11.97 Y27.36 F3500.00
G1 X12.08 Y27.24 F3500.00
G1 X12.09 Y27.21 F3500.00
G1 X12.27 Y27.15 F3500.00
G1 X12.29 Y27.13 F3500.00
G1 X12.31 Y27.09 F3500.00
G1 X12.35 Y27.06 F3500.00
G1 X12.41 Y27.00 F3500.00
G1 X12.47 Y26.93 F3500.00
G1 X12.66 Y26.87 F3500.00
G1 X12.68 Y26.83 F3500.00
G1 X12.70 Y26.77 F3500.00
G1 X12.73 Y26.74 F3500.00
G1 X12.81 Y26.68 F3500.00
G1 X12.89 Y26.61 F3500.00
G1 X12.95 Y26.53 F3500.00
G1 X13.01 Y26.48 F3500.00
G1 X13.06 Y26.46 F3500.00
G1 X13.11 Y26.45 F3500.00
G1 X13.16 Y26.42 F3500.00
G1 X13.21 Y26.38 F3500.00
G1 X13.27 Y26.32 F3500.00
G1 X13.33 Y26.25 F3500.00
G1 X13.51 Y26.19 F3500.00
G1 X13.53 Y26.16 F3500.00
G1 X13.59 Y26.08 F3500.00
G1 X13.65 Y26.02 F3500.00
G1 X13.83 Y25.97 F3500.00
G1 X13.86 Y25.91 F3500.00
G1 X13.92 Y25.83 F3500.00
G1 X13.98 Y25.79 F3500.00
G1 X14.16 Y25.72 F3500.00
G1 X14.18 Y25.68 F3500.00
G1 X14.25 Y25.62 F3500.00
G1 X14.30 Y25.56 F3500.00
G1 X14.38 Y25.47 F3500.00
G1 X14.46 Y25.41 F3500.00
G1 X14.61 Y25.37 F3500.00
G1 X14.62 Y25.34 F3500.00
G1 X14.70 Y25.25 F3500.00
G1 X14.78 Y25.19 F3500.00
G1 X14.85 Y25.11 F3500.00
G1 X14.90 Y25.05 F3500.00
G1 X14.95 Y25.04 F3500.00
G1 X15.00 Y25.03 F3500.00
G1 X15.08 Y24.97 F3500.00
G1 X15.16 Y24.93 F3500.00
G1 X15.27 Y24.82 F3500.00
G1 X15.32 Y24.86 F3500.00
G1 X15.32 Y24.82 F3500.00
G1 X15.40 Y24.72 F3500.00
G1 X15.48 Y24.67 F3500.00
G1 X15.63 Y24.62 F3500.00
G1 X15.66 Y24.59 F3500.00
G1 X15.72 Y24.45 F3500.00
G1 X15.80 Y24.50 F3500.00
G1 X15.81 Y24.46 F3500.00
G1 X15.87 Y24.37 F3500.00
G1 X15.93 Y24.31 F3500.00
G1 X16.11 Y24.26 F3500.00
G1 X16.13 Y24.24 F3500.00
G1 X16.23 Y24.10 F3500.00
G1 X16.25 Y24.07 F3500.00
G1 X16.42 Y24.01 F3500.00
G1 X16.44 Y23.99 F3500.00
G1 X16.47 Y23.96 F3500.00
G1 X16.50 Y23.92 F3500.00
G1 X16.58 Y23.86 F3500.00
G1 X16.64 Y23.77 F3500.00
G1 X16.69 Y23.76 F3500.00
G1 X16.76 Y23.74 F3500.00
G1 X16.81 Y23.67 F3500.00
G1 X16.93 Y23.57 F3500.00
G1 X17.06 Y23.51 F3500.00
G1 X17.14 Y23.46 F3500.00
G1 X17.27 Y23.33 F3500.00
G1 X17.61 Y23.08 F3500.00
G1 X17.73 Y23.02 F3500.00
G1 X17.74 Y23.06 F3500.00
G1 X17.70 Y23.14 F3500.00
G1 X17.69 Y23.28 F3500.00
G1 X17.63 Y23.66 F3500.00
G1 X17.57 Y23.96 F3500.00
G1 X17.53 Y24.14 F3500.00
G1 X17.39 Y24.65 F3500.00
G1 X17.35 Y24.69 F3500.00
G1 X17.26 Y24.78 F3500.00
G1 X17.21 Y24.82 F3500.00
G1 X17.06 Y24.90 F3500.00
G1 X17.04 Y24.94 F3500.00
G1 X16.96 Y25.01 F3500.00
G1 X16.88 Y25.05 F3500.00
G1 X16.82 Y25.11 F3500.00
G1 X16.77 Y25.19 F3500.00
G1 X16.58 Y25.26 F3500.00
G1 X16.57 Y25.29 F3500.00
G1 X16.50 Y25.37 F3500.00
G1 X16.44 Y25.42 F3500.00
G1 X16.36 Y25.48 F3500.00
G1 X16.28 Y25.55 F3500.00
G1 X16.19 Y25.57 F3500.00
G1 X16.19 Y25.59 F3500.00
G1 X16.15 Y25.64 F3500.00
G1 X16.12 Y25.67 F3500.00
G1 X16.04 Y25.72 F3500.00
G1 X15.97 Y25.79 F3500.00
G1 X15.92 Y25.80 F3500.00
G1 X15.87 Y25.81 F3500.00
G1 X15.85 Y25.85 F3500.00
G1 X15.83 Y25.90 F3500.00
G1 X15.79 Y25.94 F3500.00
G1 X15.74 Y25.95 F3500.00
G1 X15.69 Y25.99 F3500.00
G1 X15.64 Y26.02 F3500.00
G1 X15.60 Y26.08 F3500.00
G1 X15.52 Y26.14 F3500.00
G1 X15.43 Y26.17 F3500.00
G1 X15.36 Y26.19 F3500.00
G1 X15.30 Y26.29 F3500.00
G1 X15.23 Y26.35 F3500.00
G1 X15.18 Y26.38 F3500.00
G1 X15.13 Y26.38 F3500.00
G1 X15.11 Y26.42 F3500.00
G1 X15.10 Y26.46 F3500.00
G1 X15.04 Y26.48 F3500.00
G1 X14.97 Y26.49 F3500.00
G1 X14.94 Y26.53 F3500.00
G1 X14.91 Y26.58 F3500.00
G1 X14.85 Y26.65 F3500.00
G1 X14.78 Y26.71 F3500.00
G1 X14.72 Y26.73 F3500.00
G1 X14.65 Y26.75 F3500.00
G1 X14.62 Y26.77 F3500.00
G1 X14.58 Y26.81 F3500.00
G1 X14.53 Y26.86 F3500.00
G1 X14.47 Y26.94 F3500.00
G1 X14.33 Y26.96 F3500.00
G1 X14.33 Y26.98 F3500.00
G1 X14.29 Y27.02 F3500.00
G1 X14.26 Y27.06 F3500.00
G1 X14.18 Y27.12 F3500.00
G1 X14.12 Y27.17 F3500.00
G1 X14.08 Y27.21 F3500.00
G1 X13.95 Y27.21 F3500.00
G1 X13.94 Y27.27 F3500.00
G1 X13.86 Y27.36 F3500.00
G1 X13.80 Y27.42 F3500.00
G1 X13.75 Y27.46 F3500.00
G1 X13.64 Y27.46 F3500.00
G1 X13.62 Y27.50 F3500.00
G1 X13.54 Y27.58 F3500.00
G1 X13.49 Y27.66 F3500.00
G1 X13.44 Y27.71 F3500.00
G1 X13.30 Y27.70 F3500.00
G1 X13.28 Y27.73 F3500.00
G1 X13.28 Y27.83 F3500.00
G1 X13.16 Y27.80 F3500.00
G1 X13.14 Y27.86 F3500.00
G1 X13.09 Y27.94 F3500.00
G1 X13.01 Y28.01 F3500.00
G1 X12.87 Y28.07 F3500.00
G1 X12.85 Y28.14 F3500.00
G1 X12.78 Y28.18 F3500.00
G1 X12.69 Y28.24 F3500.00
G1 X12.55 Y28.29 F3500.00
G1 X12.53 Y28.39 F3500.00
G1 X12.46 Y28.43 F3500.00
G1 X12.38 Y28.48 F3500.00
G1 X12.31 Y28.55 F3500.00
G1 X12.25 Y28.60 F3500.00
G1 X12.19 Y28.62 F3500.00
G1 X12.13 Y28.65 F3500.00
G1 X12.06 Y28.72 F3500.00
G1 X12.00 Y28.77 F3500.00
G1 X11.81 Y28.82 F3500.00
G1 X11.79 Y28.85 F3500.00
G1 X11.74 Y28.93 F3500.00
G1 X11.68 Y29.00 F3500.00
G1 X11.49 Y29.07 F3500.00
G1 X11.48 Y29.08 F3500.00
G1 X11.45 Y29.13 F3500.00
G1 X11.41 Y29.16 F3500.00
G1 X11.34 Y29.22 F3500.00
G1 X11.28 Y29.28 F3500.00
G1 X11.24 Y29.30 F3500.00
G1 X11.17 Y29.31 F3500.00
G1 X11.14 Y29.34 F3500.00
G1 X11.12 Y29.40 F3500.00
G1 X11.08 Y29.44 F3500.00
G1 X11.04 Y29.45 F3500.00
G1 X10.98 Y29.48 F3500.00
G1 X10.96 Y29.52 F3500.00
G1 X10.93 Y29.55 F3500.00
G1 X10.87 Y29.59 F3500.00
G1 X10.74 Y29.65 F3500.00
G1 X10.72 Y29.69 F3500.00
G1 X10.66 Y29.79 F3500.00
G1 X10.57 Y29.83 F3500.00
G1 X10.46 Y29.92 F3500.00
G1 X10.37 Y29.98 F3500.00
G1 X10.37 Y29.98 F3500.00
M300 S50.00 (pen up)
G4 P150 (wait 150ms)

(Polyline consisting of 30 segments.)
G1 X34.65 Y29.98 F3500.00
M300 S30.00 (pen down)
G4 P150 (wait 150ms)
G1 X34.41 Y29.83 F3500.00
G1 X34.35 Y29.81 F3500.00
G1 X34.31 Y29.75 F3500.00
G1 X34.27 Y29.74 F3500.00
G1 X34.25 Y29.72 F3500.00
G1 X34.23 Y29.67 F3500.00
G1 X34.14 Y29.62 F3500.00
G1 X34.04 Y29.55 F3500.00
G1 X33.99 Y29.52 F3500.00
G1 X33.89 Y29.45 F3500.00
G1 X33.81 Y29.34 F3500.00
G1 X33.79 Y29.29 F3500.00
G1 X33.62 Y29.23 F3500.00
G1 X33.56 Y29.18 F3500.00
G1 X33.50 Y29.10 F3500.00
G1 X33.46 Y29.09 F3500.00
G1 X33.39 Y29.10 F3500.00
G1 X33.33 Y29.06 F3500.00
G1 X33.30 Y29.01 F3500.00
G1 X33.17 Y28.91 F3500.00
G1 X33.08 Y28.85 F3500.00
G1 X33.13 Y28.80 F3500.00
G1 X33.05 Y28.79 F3500.00
G1 X32.94 Y28.76 F3500.00
G1 X32.88 Y28.70 F3500.00
G1 X32.84 Y28.66 F3500.00
G1 X32.78 Y28.63 F3500.00
G1 X32.78 Y28.59 F3500.00
G1 X32.76 Y28.55 F3500.00
G1 X32.62 Y28.48 F3500.00
G1 X32.48 Y28.41 F3500.00
G1 X32.45 Y28.39 F3500.00
G1 X32.40 Y28.29 F3500.00
G1 X32.18 Y28.14 F3500.00
G1 X32.06 Y28.07 F3500.00
G1 X31.99 Y28.01 F3500.00
G1 X31.88 Y27.91 F3500.00
G1 X31.75 Y27.84 F3500.00
G1 X31.71 Y27.80 F3500.00
G1 X31.59 Y27.73 F3500.00
G1 X31.47 Y27.66 F3500.00
G1 X31.43 Y27.61 F3500.00
G1 X31.35 Y27.54 F3500.00
G1 X31.28 Y27.49 F3500.00
G1 X31.21 Y27.43 F3500.00
G1 X31.11 Y27.38 F3500.00
G1 X31.04 Y27.32 F3500.00
G1 X30.91 Y27.24 F3500.00
G1 X30.80 Y27.15 F3500.00
G1 X30.74 Y27.07 F3500.00
G1 X30.71 Y27.05 F3500.00
G1 X30.60 Y27.03 F3500.00
G1 X30.56 Y26.99 F3500.00
G1 X30.50 Y26.91 F3500.00
G1 X30.43 Y26.82 F3500.00
G1 X30.40 Y26.80 F3500.00
G1 X30.32 Y26.79 F3500.00
G1 X30.30 Y26.70 F3500.00
G1 X30.26 Y26.68 F3500.00
G1 X30.02 Y26.57 F3500.00
G1 X29.99 Y26.53 F3500.00
G1 X29.97 Y26.49 F3500.00
G1 X29.90 Y26.48 F3500.00
G1 X29.84 Y26.46 F3500.00
G1 X29.78 Y26.40 F3500.00
G1 X29.72 Y26.34 F3500.00
G1 X29.69 Y26.31 F3500.00
G1 X29.65 Y26.26 F3500.00
G1 X29.64 Y26.24 F3500.00
G1 X29.52 Y26.23 F3500.00
G1 X29.46 Y26.15 F3500.00
G1 X29.40 Y26.09 F3500.00
G1 X29.36 Y26.06 F3500.00
G1 X29.33 Y26.03 F3500.00
G1 X29.27 Y26.01 F3500.00
G1 X29.20 Y26.00 F3500.00
G1 X29.14 Y25.94 F3500.00
G1 X29.07 Y25.86 F3500.00
G1 X29.00 Y25.79 F3500.00
G1 X28.92 Y25.71 F3500.00
G1 X28.90 Y25.68 F3500.00
G1 X28.76 Y25.63 F3500.00
G1 X28.73 Y25.60 F3500.00
G1 X28.67 Y25.56 F3500.00
G1 X28.63 Y25.52 F3500.00
G1 X28.60 Y25.48 F3500.00
G1 X28.54 Y25.43 F3500.00
G1 X28.48 Y25.37 F3500.00
G1 X28.45 Y25.33 F3500.00
G1 X28.35 Y25.33 F3500.00
G1 X28.29 Y25.23 F3500.00
G1 X28.28 Y25.19 F3500.00
G1 X28.22 Y25.24 F3500.00
G1 X28.16 Y25.11 F3500.00
G1 X28.14 Y25.08 F3500.00
G1 X27.96 Y25.03 F3500.00
G1 X27.90 Y24.97 F3500.00
G1 X27.84 Y24.88 F3500.00
G1 X27.80 Y24.87 F3500.00
G1 X27.75 Y24.88 F3500.00
G1 X27.67 Y24.86 F3500.00
G1 X27.67 Y24.80 F3500.00
G1 X27.66 Y24.72 F3500.00
G1 X27.49 Y24.45 F3500.00
G1 X27.44 Y24.14 F3500.00
G1 X27.39 Y23.95 F3500.00
G1 X27.33 Y23.79 F3500.00
G1 X27.19 Y23.10 F3500.00
G1 X27.19 Y23.09 F3500.00
G1 X27.22 Y22.99 F3500.00
G1 X27.37 Y23.13 F3500.00
G1 X27.43 Y23.17 F3500.00
G1 X27.49 Y23.21 F3500.00
G1 X27.53 Y23.23 F3500.00
G1 X27.55 Y23.24 F3500.00
G1 X27.61 Y23.28 F3500.00
G1 X27.65 Y23.31 F3500.00
G1 X27.73 Y23.36 F3500.00
G1 X27.81 Y23.44 F3500.00
G1 X27.88 Y23.51 F3500.00
G1 X27.94 Y23.56 F3500.00
G1 X28.04 Y23.62 F3500.00
G1 X28.12 Y23.67 F3500.00
G1 X28.23 Y23.75 F3500.00
G1 X28.32 Y23.90 F3500.00
G1 X28.35 Y23.90 F3500.00
G1 X28.57 Y24.00 F3500.00
G1 X28.66 Y24.04 F3500.00
G1 X28.75 Y24.12 F3500.00
G1 X28.77 Y24.17 F3500.00
G1 X28.79 Y24.20 F3500.00
G1 X28.84 Y24.22 F3500.00
G1 X28.89 Y24.23 F3500.00
G1 X28.97 Y24.29 F3500.00
G1 X29.04 Y24.35 F3500.00
G1 X29.07 Y24.38 F3500.00
G1 X29.11 Y24.46 F3500.00
G1 X29.13 Y24.47 F3500.00
G1 X29.19 Y24.46 F3500.00
G1 X29.27 Y24.52 F3500.00
G1 X29.29 Y24.56 F3500.00
G1 X29.35 Y24.61 F3500.00
G1 X29.43 Y24.67 F3500.00
G1 X29.46 Y24.70 F3500.00
G1 X29.49 Y24.74 F3500.00
G1 X29.57 Y24.75 F3500.00
G1 X29.61 Y24.77 F3500.00
G1 X29.62 Y24.82 F3500.00
G1 X29.66 Y24.86 F3500.00
G1 X29.71 Y24.89 F3500.00
G1 X29.76 Y24.91 F3500.00
G1 X29.81 Y24.97 F3500.00
G1 X29.87 Y25.03 F3500.00
G1 X29.93 Y25.06 F3500.00
G1 X29.98 Y25.10 F3500.00
G1 X30.02 Y25.11 F3500.00
G1 X30.08 Y25.12 F3500.00
G1 X30.09 Y25.17 F3500.00
G1 X30.19 Y25.29 F3500.00
G1 X30.24 Y25.31 F3500.00
G1 X30.30 Y25.34 F3500.00
G1 X30.35 Y25.35 F3500.00
G1 X30.39 Y25.37 F3500.00
G1 X30.46 Y25.43 F3500.00
G1 X30.52 Y25.49 F3500.00
G1 X30.55 Y25.52 F3500.00
G1 X30.67 Y25.66 F3500.00
G1 X30.69 Y25.69 F3500.00
G1 X30.81 Y25.69 F3500.00
G1 X30.85 Y25.74 F3500.00
G1 X30.91 Y25.79 F3500.00
G1 X30.99 Y25.87 F3500.00
G1 X31.06 Y25.94 F3500.00
G1 X31.12 Y26.00 F3500.00
G1 X31.17 Y26.02 F3500.00
G1 X31.24 Y26.02 F3500.00
G1 X31.28 Y26.06 F3500.00
G1 X31.31 Y26.12 F3500.00
G1 X31.33 Y26.15 F3500.00
G1 X31.44 Y26.22 F3500.00
G1 X31.45 Y26.23 F3500.00
G1 X31.58 Y26.25 F3500.00
G1 X31.64 Y26.32 F3500.00
G1 X31.70 Y26.38 F3500.00
G1 X31.73 Y26.42 F3500.00
G1 X31.77 Y26.45 F3500.00
G1 X31.83 Y26.46 F3500.00
G1 X31.90 Y26.48 F3500.00
G1 X31.96 Y26.53 F3500.00
G1 X32.03 Y26.61 F3500.00
G1 X32.05 Y26.67 F3500.00
G1 X32.08 Y26.71 F3500.00
G1 X32.10 Y26.72 F3500.00
G1 X32.28 Y26.77 F3500.00
G1 X32.34 Y26.83 F3500.00
G1 X32.39 Y26.94 F3500.00
G1 X32.40 Y26.98 F3500.00
G1 X32.48 Y26.91 F3500.00
G1 X32.59 Y27.03 F3500.00
G1 X32.66 Y27.07 F3500.00
G1 X32.72 Y27.13 F3500.00
G1 X32.78 Y27.16 F3500.00
G1 X32.82 Y27.20 F3500.00
G1 X32.87 Y27.21 F3500.00
G1 X32.92 Y27.25 F3500.00
G1 X32.98 Y27.32 F3500.00
G1 X33.05 Y27.38 F3500.00
G1 X33.09 Y27.42 F3500.00
G1 X33.15 Y27.44 F3500.00
G1 X33.19 Y27.46 F3500.00
G1 X33.24 Y27.48 F3500.00
G1 X33.25 Y27.52 F3500.00
G1 X33.27 Y27.56 F3500.00
G1 X33.31 Y27.57 F3500.00
G1 X33.37 Y27.60 F3500.00
G1 X33.45 Y27.68 F3500.00
G1 X33.52 Y27.73 F3500.00
G1 X33.56 Y27.77 F3500.00
G1 X33.60 Y27.80 F3500.00
G1 X33.67 Y27.81 F3500.00
G1 X33.71 Y27.83 F3500.00
G1 X33.76 Y27.89 F3500.00
G1 X33.84 Y27.96 F3500.00
G1 X33.88 Y28.03 F3500.00
G1 X33.91 Y28.05 F3500.00
G1 X33.98 Y28.07 F3500.00
G1 X34.02 Y28.09 F3500.00
G1 X34.05 Y28.13 F3500.00
G1 X34.11 Y28.16 F3500.00
G1 X34.15 Y28.21 F3500.00
G1 X34.21 Y28.32 F3500.00
G1 X34.24 Y28.35 F3500.00
G1 X34.29 Y28.45 F3500.00
G1 X34.34 Y28.59 F3500.00
G1 X34.42 Y28.89 F3500.00
G1 X34.67 Y29.96 F3500.00
G1 X34.65 Y29.98 F3500.00
G1 X34.65 Y29.98 F3500.00
M300 S50.00 (pen up)
G4 P150 (wait 150ms)

(Polyline consisting of 30 segments.)
G1 X17.58 Y29.77 F3500.00
M300 S30.00 (pen down)
G4 P150 (wait 150ms)
G1 X17.61 Y29.74 F3500.00
G1 X17.58 Y29.70 F3500.00
G1 X17.54 Y29.74 F3500.00
G1 X17.58 Y29.77 F3500.00
M300 S50.00 (pen up)
G4 P150 (wait 150ms)

(Polyline consisting of 30 segments.)
G1 X11.11 Y28.79 F3500.00
M300 S30.00 (pen down)
G4 P150 (wait 150ms)
G1 X11.19 Y28.77 F3500.00
G1 X11.19 Y28.73 F3500.00
G1 X11.25 Y28.70 F3500.00
G1 X11.32 Y28.68 F3500.00
G1 X11.35 Y28.62 F3500.00
G1 X11.39 Y28.59 F3500.00
G1 X11.45 Y28.54 F3500.00
G1 X11.51 Y28.48 F3500.00
G1 X11.57 Y28.46 F3500.00
G1 X11.64 Y28.45 F3500.00
G1 X11.71 Y28.40 F3500.00
G1 X11.77 Y28.32 F3500.00
G1 X11.85 Y28.25 F3500.00
G1 X11.93 Y28.19 F3500.00
G1 X11.97 Y28.18 F3500.00
G1 X12.02 Y28.16 F3500.00
G1 X12.06 Y28.13 F3500.00
G1 X12.09 Y28.10 F3500.00
G1 X12.17 Y28.03 F3500.00
G1 X12.25 Y27.95 F3500.00
G1 X12.30 Y27.93 F3500.00
G1 X12.34 Y27.91 F3500.00
G1 X12.38 Y27.88 F3500.00
G1 X12.41 Y27.84 F3500.00
G1 X12.49 Y27.79 F3500.00
G1 X12.56 Y27.73 F3500.00
G1 X12.61 Y27.71 F3500.00
G1 X12.67 Y27.70 F3500.00
G1 X12.68 Y27.66 F3500.00
G1 X12.70 Y27.61 F3500.00
G1 X12.75 Y27.57 F3500.00
G1 X12.79 Y27.56 F3500.00
G1 X12.84 Y27.52 F3500.00
G1 X12.89 Y27.48 F3500.00
G1 X12.93 Y27.46 F3500.00
G1 X12.98 Y27.44 F3500.00
G1 X13.00 Y27.42 F3500.00
G1 X13.01 Y27.37 F3500.00
G1 X13.06 Y27.36 F3500.00
G1 X13.11 Y27.34 F3500.00
G1 X13.16 Y27.31 F3500.00
G1 X13.21 Y27.26 F3500.00
G1 X13.28 Y27.18 F3500.00
G1 X13.33 Y27.12 F3500.00
G1 X13.38 Y27.10 F3500.00
G1 X13.43 Y27.09 F3500.00
G1 X13.49 Y27.06 F3500.00
G1 X13.54 Y27.04 F3500.00
G1 X13.64 Y26.91 F3500.00
G1 X13.65 Y26.88 F3500.00
G1 X13.84 Y26.83 F3500.00
G1 X13.86 Y26.80 F3500.00
G1 X13.92 Y26.72 F3500.00
G1 X13.98 Y26.68 F3500.00
G1 X14.10 Y26.56 F3500.00
G1 X14.17 Y26.61 F3500.00
G1 X14.18 Y26.57 F3500.00
G1 X14.24 Y26.46 F3500.00
G1 X14.30 Y26.41 F3500.00
G1 X14.48 Y26.37 F3500.00
G1 X14.50 Y26.34 F3500.00
G1 X14.55 Y26.20 F3500.00
G1 X14.62 Y26.24 F3500.00
G1 X14.62 Y26.21 F3500.00
G1 X14.68 Y26.11 F3500.00
G1 X14.79 Y26.11 F3500.00
G1 X14.82 Y26.08 F3500.00
G1 X14.88 Y26.01 F3500.00
G1 X14.94 Y25.97 F3500.00
G1 X15.07 Y25.85 F3500.00
G1 X15.09 Y25.81 F3500.00
G1 X15.13 Y25.78 F3500.00
G1 X15.18 Y25.73 F3500.00
G1 X15.22 Y25.71 F3500.00
G1 X15.25 Y25.70 F3500.00
G1 X15.32 Y25.68 F3500.00
G1 X15.37 Y25.67 F3500.00
G1 X15.39 Y25.64 F3500.00
G1 X15.45 Y25.58 F3500.00
G1 X15.51 Y25.50 F3500.00
G1 X15.57 Y25.44 F3500.00
G1 X15.65 Y25.43 F3500.00
G1 X15.69 Y25.42 F3500.00
G1 X15.72 Y25.38 F3500.00
G1 X15.77 Y25.34 F3500.00
G1 X15.83 Y25.29 F3500.00
G1 X15.89 Y25.22 F3500.00
G1 X15.92 Y25.17 F3500.00
G1 X15.98 Y25.12 F3500.00
G1 X16.05 Y25.13 F3500.00
G1 X16.10 Y25.12 F3500.00
G1 X16.12 Y25.06 F3500.00
G1 X16.15 Y25.03 F3500.00
G1 X16.21 Y24.97 F3500.00
G1 X16.27 Y24.91 F3500.00
G1 X16.34 Y24.89 F3500.00
G1 X16.40 Y24.86 F3500.00
G1 X16.42 Y24.82 F3500.00
G1 X16.43 Y24.77 F3500.00
G1 X16.49 Y24.75 F3500.00
G1 X16.54 Y24.74 F3500.00
G1 X16.57 Y24.70 F3500.00
G1 X16.60 Y24.67 F3500.00
G1 X16.68 Y24.61 F3500.00
G1 X16.78 Y24.55 F3500.00
G1 X16.83 Y24.57 F3500.00
G1 X16.86 Y24.53 F3500.00
G1 X16.91 Y24.44 F3500.00
G1 X17.02 Y24.27 F3500.00
G1 X17.04 Y24.10 F3500.00
G1 X17.03 Y24.13 F3500.00
G1 X16.96 Y24.17 F3500.00
G1 X16.92 Y24.19 F3500.00
G1 X16.72 Y24.29 F3500.00
G1 X16.70 Y24.33 F3500.00
G1 X16.62 Y24.40 F3500.00
G1 X16.54 Y24.47 F3500.00
G1 X16.48 Y24.55 F3500.00
G1 X16.42 Y24.60 F3500.00
G1 X16.35 Y24.63 F3500.00
G1 X16.28 Y24.64 F3500.00
G1 X16.27 Y24.67 F3500.00
G1 X16.25 Y24.71 F3500.00
G1 X16.20 Y24.74 F3500.00
G1 X16.15 Y24.74 F3500.00
G1 X16.12 Y24.78 F3500.00
G1 X16.09 Y24.83 F3500.00
G1 X16.01 Y24.90 F3500.00
G1 X15.91 Y24.97 F3500.00
G1 X15.86 Y24.95 F3500.00
G1 X15.82 Y24.97 F3500.00
G1 X15.74 Y25.05 F3500.00
G1 X15.69 Y25.10 F3500.00
G1 X15.67 Y25.13 F3500.00
G1 X15.60 Y25.19 F3500.00
G1 X15.54 Y25.19 F3500.00
G1 X15.51 Y25.19 F3500.00
G1 X15.43 Y25.30 F3500.00
G1 X15.37 Y25.34 F3500.00
G1 X15.31 Y25.40 F3500.00
G1 X15.23 Y25.46 F3500.00
G1 X15.18 Y25.48 F3500.00
G1 X15.13 Y25.49 F3500.00
G1 X15.08 Y25.52 F3500.00
G1 X15.06 Y25.61 F3500.00
G1 X15.00 Y25.64 F3500.00
G1 X14.91 Y25.71 F3500.00
G1 X14.86 Y25.73 F3500.00
G1 X14.81 Y25.74 F3500.00
G1 X14.76 Y25.78 F3500.00
G1 X14.73 Y25.81 F3500.00
G1 X14.72 Y25.85 F3500.00
G1 X14.67 Y25.88 F3500.00
G1 X14.62 Y25.92 F3500.00
G1 X14.59 Y25.96 F3500.00
G1 X14.55 Y25.98 F3500.00
G1 X14.49 Y25.99 F3500.00
G1 X14.48 Y26.02 F3500.00
G1 X14.46 Y26.07 F3500.00
G1 X14.40 Y26.09 F3500.00
G1 X14.33 Y26.10 F3500.00
G1 X14.30 Y26.13 F3500.00
G1 X14.25 Y26.17 F3500.00
G1 X14.22 Y26.18 F3500.00
G1 X14.20 Y26.22 F3500.00
G1 X14.16 Y26.27 F3500.00
G1 X14.09 Y26.31 F3500.00
G1 X14.03 Y26.32 F3500.00
G1 X14.01 Y26.34 F3500.00
G1 X13.95 Y26.40 F3500.00
G1 X13.88 Y26.46 F3500.00
G1 X13.82 Y26.49 F3500.00
G1 X13.80 Y26.53 F3500.00
G1 X13.80 Y26.56 F3500.00
G1 X13.73 Y26.60 F3500.00
G1 X13.63 Y26.59 F3500.00
G1 X13.62 Y26.62 F3500.00
G1 X13.54 Y26.73 F3500.00
G1 X13.48 Y26.77 F3500.00
G1 X13.43 Y26.83 F3500.00
G1 X13.32 Y26.83 F3500.00
G1 X13.29 Y26.85 F3500.00
G1 X13.24 Y26.98 F3500.00
G1 X13.20 Y26.95 F3500.00
G1 X13.16 Y26.91 F3500.00
G1 X13.17 Y27.03 F3500.00
G1 X13.11 Y27.07 F3500.00
G1 X13.02 Y27.13 F3500.00
G1 X12.98 Y27.17 F3500.00
G1 X12.94 Y27.21 F3500.00
G1 X12.89 Y27.20 F3500.00
G1 X12.82 Y27.19 F3500.00
G1 X12.83 Y27.22 F3500.00
G1 X12.77 Y27.33 F3500.00
G1 X12.70 Y27.38 F3500.00
G1 X12.63 Y27.43 F3500.00
G1 X12.57 Y27.50 F3500.00
G1 X12.51 Y27.51 F3500.00
G1 X12.45 Y27.53 F3500.00
G1 X12.41 Y27.56 F3500.00
G1 X12.38 Y27.60 F3500.00
G1 X12.20 Y27.73 F3500.00
G1 X12.13 Y27.77 F3500.00
G1 X11.86 Y27.94 F3500.00
G1 X11.81 Y27.99 F3500.00
G1 X11.79 Y28.06 F3500.00
G1 X11.69 Y28.13 F3500.00
G1 X11.54 Y28.19 F3500.00
G1 X11.49 Y28.23 F3500.00
G1 X11.44 Y28.30 F3500.00
G1 X11.37 Y28.37 F3500.00
G1 X11.33 Y28.37 F3500.00
G1 X11.24 Y28.36 F3500.00
G1 X11.28 Y28.41 F3500.00
G1 X11.25 Y28.46 F3500.00
G1 X11.18 Y28.53 F3500.00
G1 X11.12 Y28.52 F3500.00
G1 X11.10 Y28.51 F3500.00
G1 X11.09 Y28.69 F3500.00
G1 X11.11 Y28.79 F3500.00
G1 X11.11 Y28.79 F3500.00
M300 S50.00 (pen up)
G4 P150 (wait 150ms)

(Polyline consisting of 30 segments.)
G1 X33.81 Y28.76 F3500.00
M300 S30.00 (pen down)
G4 P150 (wait 150ms)
G1 X33.86 Y28.69 F3500.00
G1 X33.82 Y28.59 F3500.00
G1 X33.81 Y28.55 F3500.00
G1 X33.74 Y28.51 F3500.00
G1 X33.69 Y28.49 F3500.00
G1 X33.64 Y28.44 F3500.00
G1 X33.56 Y28.36 F3500.00
G1 X33.47 Y28.29 F3500.00
G1 X33.40 Y28.25 F3500.00
G1 X33.38 Y28.18 F3500.00
G1 X33.23 Y28.13 F3500.00
G1 X33.15 Y28.07 F3500.00
G1 X33.08 Y28.03 F3500.00
G1 X33.04 Y27.93 F3500.00
G1 X32.96 Y27.87 F3500.00
G1 X32.93 Y27.82 F3500.00
G1 X32.82 Y27.82 F3500.00
G1 X32.78 Y27.77 F3500.00
G1 X32.71 Y27.73 F3500.00
G1 X32.63 Y27.63 F3500.00
G1 X32.62 Y27.57 F3500.00
G1 X32.50 Y27.58 F3500.00
G1 X32.45 Y27.52 F3500.00
G1 X32.39 Y27.47 F3500.00
G1 X32.31 Y27.42 F3500.00
G1 X32.28 Y27.38 F3500.00
G1 X32.25 Y27.35 F3500.00
G1 X32.18 Y27.33 F3500.00
G1 X32.12 Y27.32 F3500.00
G1 X32.07 Y27.22 F3500.00
G1 X31.99 Y27.17 F3500.00
G1 X31.96 Y27.13 F3500.00
G1 X31.92 Y27.10 F3500.00
G1 X31.85 Y27.08 F3500.00
G1 X31.81 Y27.06 F3500.00
G1 X31.75 Y27.01 F3500.00
G1 X31.66 Y26.93 F3500.00
G1 X31.64 Y26.88 F3500.00
G1 X31.61 Y26.83 F3500.00
G1 X31.59 Y26.83 F3500.00
G1 X31.41 Y26.77 F3500.00
G1 X31.36 Y26.72 F3500.00
G1 X31.28 Y26.62 F3500.00
G1 X31.28 Y26.59 F3500.00
G1 X31.21 Y26.63 F3500.00
G1 X31.10 Y26.52 F3500.00
G1 X31.03 Y26.47 F3500.00
G1 X30.99 Y26.38 F3500.00
G1 X30.96 Y26.35 F3500.00
G1 X30.80 Y26.31 F3500.00
G1 X30.76 Y26.30 F3500.00
G1 X30.71 Y26.26 F3500.00
G1 X30.68 Y26.20 F3500.00
G1 X30.64 Y26.17 F3500.00
G1 X30.58 Y26.16 F3500.00
G1 X30.52 Y26.14 F3500.00
G1 X30.50 Y26.09 F3500.00
G1 X30.48 Y26.07 F3500.00
G1 X30.43 Y26.05 F3500.00
G1 X30.39 Y26.03 F3500.00
G1 X30.31 Y25.97 F3500.00
G1 X30.24 Y25.93 F3500.00
G1 X30.21 Y25.85 F3500.00
G1 X30.16 Y25.81 F3500.00
G1 X30.11 Y25.80 F3500.00
G1 X30.07 Y25.78 F3500.00
G1 X30.04 Y25.74 F3500.00
G1 X30.01 Y25.71 F3500.00
G1 X29.93 Y25.65 F3500.00
G1 X29.85 Y25.58 F3500.00
G1 X29.81 Y25.52 F3500.00
G1 X29.78 Y25.49 F3500.00
G1 X29.73 Y25.48 F3500.00
G1 X29.68 Y25.47 F3500.00
G1 X29.60 Y25.41 F3500.00
G1 X29.53 Y25.34 F3500.00
G1 X29.49 Y25.31 F3500.00
G1 X29.46 Y25.28 F3500.00
G1 X29.42 Y25.26 F3500.00
G1 X29.37 Y25.23 F3500.00
G1 X29.35 Y25.17 F3500.00
G1 X29.33 Y25.14 F3500.00
G1 X29.27 Y25.12 F3500.00
G1 X29.20 Y25.11 F3500.00
G1 X29.14 Y25.04 F3500.00
G1 X29.08 Y24.99 F3500.00
G1 X29.04 Y24.96 F3500.00
G1 X29.01 Y24.92 F3500.00
G1 X28.95 Y24.91 F3500.00
G1 X28.89 Y24.88 F3500.00
G1 X28.82 Y24.80 F3500.00
G1 X28.75 Y24.74 F3500.00
G1 X28.68 Y24.69 F3500.00
G1 X28.60 Y24.60 F3500.00
G1 X28.59 Y24.58 F3500.00
G1 X28.45 Y24.51 F3500.00
G1 X28.41 Y24.45 F3500.00
G1 X28.37 Y24.42 F3500.00
G1 X28.35 Y24.38 F3500.00
G1 X28.08 Y24.22 F3500.00
G1 X28.00 Y24.19 F3500.00
G1 X27.95 Y24.29 F3500.00
G1 X28.20 Y24.58 F3500.00
G1 X28.24 Y24.64 F3500.00
G1 X28.30 Y24.67 F3500.00
G1 X28.33 Y24.71 F3500.00
G1 X28.37 Y24.72 F3500.00
G1 X28.45 Y24.74 F3500.00
G1 X28.51 Y24.79 F3500.00
G1 X28.57 Y24.87 F3500.00
G1 X28.62 Y24.92 F3500.00
G1 X28.65 Y24.96 F3500.00
G1 X28.69 Y24.97 F3500.00
G1 X28.76 Y24.98 F3500.00
G1 X28.77 Y25.03 F3500.00
G1 X28.79 Y25.06 F3500.00
G1 X28.84 Y25.07 F3500.00
G1 X28.89 Y25.09 F3500.00
G1 X28.97 Y25.15 F3500.00
G1 X29.05 Y25.22 F3500.00
G1 X29.08 Y25.27 F3500.00
G1 X29.12 Y25.31 F3500.00
G1 X29.16 Y25.32 F3500.00
G1 X29.21 Y25.34 F3500.00
G1 X29.29 Y25.40 F3500.00
G1 X29.36 Y25.45 F3500.00
G1 X29.40 Y25.49 F3500.00
G1 X29.43 Y25.53 F3500.00
G1 X29.44 Y25.56 F3500.00
G1 X29.53 Y25.57 F3500.00
G1 X29.61 Y25.64 F3500.00
